; generated by PrusaSlicer 2.6.0+win64 on 2024-07-01 at 09:09:47 UTC


;
;

;
;
; 

; external perimeters extrusion width = 0.45mm
; perimeters extrusion width = 0.45mm
; infill extrusion width = 0.45mm
; solid infill extrusion width = 0.45mm
; top infill extrusion width = 0.45mm
; support material extrusion width = 0.38mm
; first layer extrusion width = 0.42mm

;TYPE:Custom
M413 S0 ; disable Power Loss Recovery
G90 ; use absolute coordinates
M83 ; extruder relative mode
M104 S120 ; set temporary nozzle temp to prevent oozing during homing and auto bed leveling
M140 S70 ; set final bed temp
G4 S10 ; allow partial nozzle warmup
G28 ; home all axis
;G29 ; run abl mesh
M420 S1 ; load mesh
G1 Z50 F240
G1 X2 Y10 F3000
M104 S240 ; set final nozzle temp
M190 S70 ; wait for bed temp to stabilize
M109 S240 ; wait for nozzle temp to stabilize
G1 Z0.28 F240
G92 E0
G1 Y140 E10 F1500 ; prime the nozzle
G1 X2.3 F5000
G92 E0
G1 Y10 E10 F1200 ; prime the nozzle
G92 E0
G21 ; set units to millimeters
G90 ; use absolute coordinates
M83 ; use relative distances for extrusion
; Filament gcode
M107
;LAYER_CHANGE
;Z:0.2
;HEIGHT:0.2
;BEFORE_LAYER_CHANGE
G92 E0
;0.2


G1 E-5 F3600
G1 Z.2 F9000
;AFTER_LAYER_CHANGE
;0.2
G1 X76.82 Y67.851
G1 E5 F2400
;TYPE:Skirt/Brim
;WIDTH:0.42
G1 F1200
G1 X77.443 Y67.274 E.02662
G1 X78.593 Y66.417 E.04497
G1 X80.515 Y65.232 E.0708
G1 X81.684 Y64.832 E.03874
G1 X84.761 Y64.34 E.0977
G1 X94.168 Y64.312 E.29495
G1 X133.862 Y64.313 E1.24458
G1 X137.084 Y64.55 E.1013
G1 X138.699 Y64.971 E.05233
G1 X140.65 Y65.845 E.06703
G1 X141.141 Y66.14 E.01796
G1 X142.092 Y66.882 E.03782
G1 X142.82 Y67.584 E.03171
G1 X143.695 Y68.559 E.04108
G1 X144.514 Y69.661 E.04305
G1 X144.936 Y70.476 E.02878
G1 X145.359 Y71.549 E.03616
G1 X145.897 Y73.631 E.06742
G1 X146.122 Y77.257 E.11391
G1 X146.122 Y144.43 E2.10616
G1 X146.019 Y145.582 E.03626
G1 X145.807 Y146.732 E.03667
G1 X145.326 Y148.574 E.05969
G1 X144.871 Y149.676 E.03738
G1 X144.238 Y150.731 E.03858
G1 X143.36 Y151.826 E.04401
G1 X142.112 Y153.136 E.05673
G1 X140.881 Y154.035 E.04779
G1 X139.052 Y154.84 E.06266
G1 X136.855 Y155.565 E.07254
G1 X113.087 Y158.49 E.75085
G1 X111.375 Y158.54 E.0537
G1 X83.092 Y155.446 E.89208
G1 X81.417 Y155.106 E.05359
G1 X79.947 Y154.489 E.04999
G1 X78.389 Y153.461 E.05853
G1 X77.284 Y152.602 E.04388
G1 X76.655 Y151.952 E.02836
G1 X76.038 Y151.135 E.0321
G1 X74.868 Y149.045 E.0751
G1 X74.261 Y147.304 E.05781
G1 X74.084 Y145.959 E.04254
G1 X74.016 Y144.43 E.04799
G1 X74.028 Y74.367 E2.19678
G1 X74.341 Y72.234 E.06759
G1 X74.521 Y71.685 E.01812
G1 X75.593 Y69.559 E.07465
G1 X76.785 Y67.9 E.06405
G1 E-3.5 F3600
;WIPE_START
G1 F7200
G1 X77.443 Y67.274 E-.4314
G1 X78.593 Y66.417 E-.68125
G1 X79.287 Y65.989 E-.38735
;WIPE_END
G1 X85.63 Y72.263 F9000
G1 E5 F2400
;TYPE:Support material
G1 F1200
G1 X86.109 Y72.44 E.01601
G1 X86.541 Y72.709 E.01596
G1 X86.911 Y73.06 E.01599
G1 X87.202 Y73.478 E.01597
G1 X87.402 Y73.946 E.01596
G1 X87.505 Y74.445 E.01598
G1 X87.505 Y74.955 E.01599
G1 X87.402 Y75.454 E.01598
G1 X87.202 Y75.922 E.01596
G1 X86.911 Y76.34 E.01597
G1 X86.541 Y76.691 E.01599
G1 X86.109 Y76.96 E.01596
G1 X85.631 Y77.137 E.01598
G1 X85.127 Y77.215 E.01599
G1 X84.619 Y77.189 E.01595
G1 X84.126 Y77.061 E.01597
G1 X83.668 Y76.837 E.01599
G1 X83.265 Y76.525 E.01598
G1 X82.934 Y76.139 E.01594
G1 X82.686 Y75.693 E.016
G1 X82.534 Y75.207 E.01597
G1 X82.482 Y74.7 E.01598
G1 X82.534 Y74.193 E.01598
G1 X82.686 Y73.707 E.01597
G1 X82.934 Y73.261 E.016
G1 X83.265 Y72.875 E.01594
G1 X83.668 Y72.563 E.01598
G1 X84.126 Y72.339 E.01599
G1 X84.619 Y72.211 E.01597
G1 X85.127 Y72.185 E.01595
G1 X85.575 Y72.254 E.01421
G1 X86.956 Y75.977 F9000
G1 F1200
G1 X86.956 Y73.767 E.06929
G1 X86.903 Y73.644 E.0042
G1 X86.652 Y73.282 E.01381
G1 X86.537 Y73.174 E.00495
G1 X86.537 Y76.226 E.09569
G1 X86.333 Y76.421 E.00885
G1 X86.118 Y76.555 E.00794
G1 X86.118 Y72.845 E.11632
G1 X85.959 Y72.746 E.00587
G1 X85.699 Y72.65 E.00869
G1 X85.699 Y76.75 E.12855
G1 X85.545 Y76.807 E.00515
G1 X85.28 Y76.848 E.00841
G1 X85.28 Y72.552 E.1347
G1 X85.11 Y72.526 E.00539
G1 X84.861 Y72.539 E.00782
G1 X84.861 Y76.861 E.13551
G1 X84.67 Y76.852 E.006
G1 X84.442 Y76.793 E.00738
G1 X84.442 Y72.607 E.13125
G1 X84.244 Y72.659 E.00642
G1 X84.023 Y72.767 E.00771
G1 X84.023 Y76.633 E.12122
G1 X83.849 Y76.547 E.00609
G1 X83.604 Y76.358 E.0097
G1 X83.604 Y73.042 E.10397
G1 X83.5 Y73.122 E.00411
G1 X83.185 Y73.507 E.0156
G1 X83.185 Y76.171 E.08353
G1 E-3.5 F3600
;WIPE_START
G1 F7200
G1 X83.185 Y73.507 E-1.2654
G1 X83.498 Y73.125 E-.2346
;WIPE_END
G1 X88.804 Y66.888 F9000
G1 E5 F2400
G1 F1200
G1 X89.365 Y67.101 E.01881
G1 X89.617 Y66.914 E.00984
G1 X91.115 Y66.689 E.0475
G1 X91.857 Y66.888 E.02409
G1 X92.419 Y67.101 E.01884
G1 X92.67 Y66.914 E.00981
G1 X94.168 Y66.689 E.0475
G1 X94.91 Y66.888 E.02409
G1 X95.472 Y67.101 E.01884
G1 X95.723 Y66.914 E.00981
G1 X97.222 Y66.689 E.04753
G1 X97.964 Y66.888 E.02409
G1 X98.525 Y67.101 E.01881
G1 X98.777 Y66.914 E.00984
G1 X100.275 Y66.689 E.0475
G1 X101.017 Y66.888 E.02409
G1 X101.579 Y67.101 E.01884
G1 X101.83 Y66.914 E.00981
G1 X103.328 Y66.689 E.0475
G1 X104.07 Y66.888 E.02409
G1 X104.632 Y67.101 E.01884
G1 X104.883 Y66.914 E.00981
G1 X106.382 Y66.689 E.04753
G1 X107.124 Y66.888 E.02409
G1 X107.685 Y67.101 E.01881
G1 X107.937 Y66.914 E.00984
G1 X109.435 Y66.689 E.0475
G1 X110.177 Y66.888 E.02409
G1 X110.739 Y67.101 E.01884
G1 X110.99 Y66.914 E.00981
G1 X112.488 Y66.689 E.0475
G1 X113.23 Y66.888 E.02409
G1 X113.792 Y67.101 E.01884
G1 X114.043 Y66.914 E.00981
G1 X115.542 Y66.689 E.04753
G1 X116.284 Y66.888 E.02409
G1 X116.845 Y67.101 E.01881
G1 X117.097 Y66.914 E.00984
G1 X118.595 Y66.69 E.04749
G1 X119.337 Y66.888 E.02408
G1 X119.899 Y67.101 E.01884
G1 X120.15 Y66.914 E.00981
G1 X121.648 Y66.69 E.04749
G1 X122.39 Y66.888 E.02408
G1 X122.952 Y67.101 E.01884
G1 X123.203 Y66.914 E.00981
G1 X124.702 Y66.69 E.04752
G1 X125.444 Y66.888 E.02408
G1 X126.005 Y67.101 E.01881
G1 X126.257 Y66.914 E.00984
G1 X127.755 Y66.69 E.04749
G1 X128.497 Y66.888 E.02408
G1 X129.059 Y67.101 E.01884
G1 X129.31 Y66.914 E.00981
G1 X130.808 Y66.69 E.04749
G1 X131.55 Y66.889 E.02409
G1 X132.112 Y67.102 E.01884
G1 X132.363 Y66.914 E.00983
G1 X133.862 Y66.69 E.04752
G1 X134.604 Y66.889 E.02409
G1 X135.316 Y67.159 E.02388
G1 X136.905 Y66.92 E.05038
G1 X137.728 Y67.141 E.02672
G1 X139.141 Y67.777 E.04858
G1 X139.21 Y67.852 E.0032
G1 X139.679 Y68.014 E.01556
G1 X140.282 Y68.624 E.02689
G1 X140.63 Y68.756 E.01167
G1 X141.139 Y69.265 E.02257
G1 X141.835 Y70.04 E.03266
G1 X141.984 Y70.279 E.00883
G1 X142.403 Y70.752 E.01981
G1 X142.524 Y71.237 E.01567
G1 X142.824 Y71.568 E.01401
G1 X143.06 Y72.308 E.02435
G1 X143.137 Y72.392 E.00357
G1 X143.591 Y74.208 E.05869
G1 X143.251 Y75.566 E.04389
G1 X143.348 Y75.672 E.00451
G1 X143.745 Y77.257 E.05123
G1 X143.362 Y78.784 E.04936
G1 X143.745 Y80.311 E.04936
G1 X143.362 Y81.837 E.04933
G1 X143.745 Y83.364 E.04936
G1 X143.362 Y84.891 E.04936
G1 X143.745 Y86.417 E.04933
G1 X143.362 Y87.944 E.04936
G1 X143.745 Y89.471 E.04936
G1 X143.362 Y90.997 E.04933
G1 X143.745 Y92.524 E.04936
G1 X143.362 Y94.05 E.04933
G1 X143.745 Y95.577 E.04936
G1 X143.362 Y97.104 E.04936
G1 X143.745 Y98.63 E.04933
G1 X143.362 Y100.157 E.04936
G1 X143.745 Y101.684 E.04936
G1 X143.362 Y103.21 E.04933
G1 X143.745 Y104.737 E.04936
G1 X143.362 Y106.264 E.04936
G1 X143.745 Y107.79 E.04933
G1 X143.362 Y109.317 E.04936
G1 X143.745 Y110.844 E.04936
G1 X143.362 Y112.37 E.04933
G1 X143.745 Y113.897 E.04936
G1 X143.362 Y115.424 E.04936
G1 X143.745 Y116.95 E.04933
G1 X143.362 Y118.477 E.04936
G1 X143.745 Y120.004 E.04936
G1 X143.362 Y121.53 E.04933
G1 X143.745 Y123.057 E.04936
G1 X143.362 Y124.584 E.04936
G1 X143.745 Y126.11 E.04933
G1 X143.362 Y127.637 E.04936
G1 X143.745 Y129.164 E.04936
G1 X143.362 Y130.69 E.04933
G1 X143.745 Y132.217 E.04936
G1 X143.362 Y133.744 E.04936
G1 X143.745 Y135.27 E.04933
G1 X143.362 Y136.797 E.04936
G1 X143.745 Y138.324 E.04936
G1 X143.362 Y139.85 E.04933
G1 X143.745 Y141.377 E.04936
G1 X143.362 Y142.904 E.04936
G1 X143.745 Y144.43 E.04933
G1 X143.585 Y145.068 E.02062
G1 X143.654 Y145.346 E.00898
G1 X143.476 Y146.053 E.02286
G1 X143.501 Y146.154 E.00326
G1 X143.109 Y147.716 E.05049
G1 X143.002 Y147.837 E.00506
G1 X142.806 Y148.499 E.02165
G1 X142.474 Y148.865 E.01549
G1 X142.377 Y149.252 E.01251
G1 X141.611 Y150.217 E.03863
G1 X140.646 Y151.264 E.04464
G1 X140.298 Y151.388 E.01158
G1 X139.831 Y151.902 E.02177
G1 X139.306 Y152.091 E.0175
G1 X138.958 Y152.332 E.01327
G1 X138.269 Y152.578 E.02294
G1 X138.21 Y152.617 E.00222
G1 X137.361 Y152.939 E.02847
G1 X136.748 Y152.984 E.01927
G1 X136.565 Y153.206 E.00902
G1 X134.708 Y153.209 E.05823
G1 X133.577 Y153.039 E.03586
G1 X133.359 Y152.877 E.00852
G1 X132.863 Y153.065 E.01663
G1 X132.121 Y153.264 E.02409
G1 X130.623 Y153.039 E.0475
G1 X130.405 Y152.877 E.00852
G1 X129.91 Y153.065 E.0166
G1 X129.168 Y153.264 E.02409
G1 X127.67 Y153.039 E.0475
G1 X127.452 Y152.877 E.00852
G1 X126.957 Y153.065 E.0166
G1 X126.215 Y153.264 E.02409
G1 X124.717 Y153.039 E.0475
G1 X124.499 Y152.877 E.00852
G1 X124.003 Y153.065 E.01663
G1 X123.261 Y153.264 E.02409
G1 X121.763 Y153.039 E.0475
G1 X121.545 Y152.877 E.00852
G1 X121.05 Y153.065 E.0166
G1 X120.308 Y153.264 E.02409
G1 X118.81 Y153.039 E.0475
G1 X118.592 Y152.877 E.00852
G1 X118.097 Y153.065 E.0166
G1 X117.355 Y153.264 E.02409
G1 X116.215 Y153.093 E.03614
G1 X115.749 Y154.15 E.03622
G1 X114.983 Y155.07 E.03754
G1 X114.012 Y155.732 E.03685
G1 X113.373 Y155.959 E.02126
G1 X112.797 Y156.13 E.01884
G1 X111.633 Y156.177 E.03653
G1 X110.515 Y155.905 E.03608
G1 X109.879 Y155.576 E.02245
G1 X109.354 Y155.237 E.01959
G1 X108.617 Y154.481 E.0331
G1 X108.235 Y153.854 E.02302
G1 X108.004 Y153.34 E.01767
G1 X107.964 Y153.199 E.0046
G1 X106.897 Y153.039 E.03383
G1 X106.679 Y152.877 E.00852
G1 X106.183 Y153.065 E.01663
G1 X105.441 Y153.264 E.02409
G1 X103.943 Y153.039 E.0475
G1 X103.725 Y152.877 E.00852
G1 X103.23 Y153.065 E.0166
G1 X102.488 Y153.264 E.02409
G1 X100.99 Y153.039 E.0475
G1 X100.772 Y152.877 E.00852
G1 X100.277 Y153.065 E.0166
G1 X99.535 Y153.264 E.02409
G1 X98.037 Y153.039 E.0475
G1 X97.819 Y152.877 E.00852
G1 X97.323 Y153.065 E.01663
G1 X96.582 Y153.264 E.02406
G1 X95.083 Y153.039 E.04753
G1 X94.866 Y152.877 E.00849
G1 X94.37 Y153.065 E.01663
G1 X93.628 Y153.264 E.02409
G1 X92.13 Y153.039 E.0475
G1 X91.912 Y152.877 E.00852
G1 X91.417 Y153.065 E.0166
G1 X90.675 Y153.264 E.02409
G1 X89.177 Y153.039 E.0475
G1 X88.959 Y152.877 E.00852
G1 X88.463 Y153.065 E.01663
G1 X87.722 Y153.264 E.02406
G1 X86.223 Y153.039 E.04753
G1 X85.964 Y152.846 E.01013
G1 X84.853 Y153.242 E.03698
G1 X83.35 Y153.083 E.04739
G1 X82.612 Y152.886 E.02395
G1 X81.905 Y152.78 E.02242
G1 X81.553 Y152.518 E.01376
G1 X81.191 Y152.463 E.01148
G1 X80.778 Y152.178 E.01573
G1 X80.642 Y152.126 E.00457
G1 X79.739 Y151.504 E.03438
G1 X79.417 Y151.227 E.01332
G1 X78.941 Y150.898 E.01814
G1 X78.83 Y150.728 E.00637
G1 X78.552 Y150.519 E.01091
G1 X78.244 Y149.933 E.02076
G1 X77.935 Y149.703 E.01208
G1 X76.955 Y147.906 E.06418
G1 X76.938 Y147.641 E.00833
G1 X76.616 Y146.977 E.02314
G1 X76.616 Y146.453 E.01643
G1 X76.459 Y145.848 E.0196
G1 X76.393 Y144.431 E.04448
G1 X76.792 Y143.583 E.02938
G1 X76.412 Y142.86 E.02561
G1 X76.412 Y141.206 E.05186
G1 X76.78 Y140.506 E.0248
G1 X76.412 Y139.807 E.02477
G1 X76.412 Y138.153 E.05186
G1 X76.78 Y137.453 E.0248
G1 X76.412 Y136.753 E.0248
G1 X76.412 Y135.1 E.05183
G1 X76.78 Y134.4 E.0248
G1 X76.412 Y133.7 E.0248
G1 X76.412 Y132.046 E.05186
G1 X76.78 Y131.346 E.0248
G1 X76.412 Y130.647 E.02477
G1 X76.412 Y128.993 E.05186
G1 X76.78 Y128.293 E.0248
G1 X76.412 Y127.593 E.0248
G1 X76.412 Y125.94 E.05183
G1 X76.78 Y125.24 E.0248
G1 X76.412 Y124.54 E.0248
G1 X76.412 Y122.886 E.05186
G1 X76.78 Y122.186 E.0248
G1 X76.412 Y121.487 E.02477
G1 X76.412 Y119.833 E.05186
G1 X76.78 Y119.133 E.0248
G1 X76.412 Y118.433 E.0248
G1 X76.412 Y116.78 E.05183
G1 X76.78 Y116.08 E.0248
G1 X76.412 Y115.38 E.0248
G1 X76.412 Y113.726 E.05186
G1 X76.78 Y113.026 E.0248
G1 X76.412 Y112.327 E.02477
G1 X76.412 Y110.673 E.05186
G1 X76.78 Y109.973 E.0248
G1 X76.412 Y109.273 E.0248
G1 X76.412 Y107.62 E.05183
G1 X76.78 Y106.92 E.0248
G1 X76.412 Y106.22 E.0248
G1 X76.412 Y104.566 E.05186
G1 X76.78 Y103.867 E.02477
G1 X76.412 Y103.167 E.0248
G1 X76.412 Y101.513 E.05186
G1 X76.78 Y100.813 E.0248
G1 X76.412 Y100.113 E.0248
G1 X76.412 Y98.46 E.05183
G1 X76.78 Y97.76 E.0248
G1 X76.412 Y97.06 E.0248
G1 X76.412 Y95.406 E.05186
G1 X76.78 Y94.707 E.02477
G1 X76.412 Y94.007 E.0248
G1 X76.412 Y92.353 E.05186
G1 X76.78 Y91.653 E.0248
G1 X76.412 Y90.953 E.0248
G1 X76.412 Y89.3 E.05183
G1 X76.78 Y88.6 E.0248
G1 X76.412 Y87.9 E.0248
G1 X76.412 Y86.246 E.05186
G1 X76.78 Y85.547 E.02477
G1 X76.412 Y84.847 E.0248
G1 X76.412 Y83.193 E.05186
G1 X76.78 Y82.493 E.0248
G1 X76.412 Y81.793 E.0248
G1 X76.412 Y80.14 E.05183
G1 X76.78 Y79.44 E.0248
G1 X76.412 Y78.74 E.0248
G1 X76.412 Y77.086 E.05186
G1 X76.786 Y76.374 E.02522
G1 X76.454 Y75.741 E.02241
G1 X76.405 Y74.367 E.04311
G1 X76.482 Y74.068 E.00968
G1 X76.511 Y73.506 E.01764
G1 X76.672 Y73.2 E.01084
G1 X76.672 Y72.697 E.01577
G1 X77.022 Y72.1 E.0217
G1 X77.031 Y71.935 E.00518
G1 X77.698 Y70.664 E.04501
G1 X77.79 Y70.595 E.00361
G1 X78.044 Y70.174 E.01542
G1 X78.28 Y69.928 E.01069
G1 X78.475 Y69.557 E.01314
G1 X78.755 Y69.346 E.01099
G1 X78.866 Y69.178 E.00631
G1 X79.744 Y68.571 E.03347
G1 X79.943 Y68.373 E.0088
G1 X80.498 Y67.99 E.02114
G1 X80.837 Y67.831 E.01174
G1 X81.35 Y67.458 E.01989
G1 X81.8 Y67.39 E.01427
G1 X82.121 Y67.169 E.01222
G1 X83.361 Y66.983 E.03931
G1 X83.851 Y66.845 E.01596
G1 X85.048 Y66.699 E.03781
G1 X85.75 Y66.888 E.02279
G1 X86.312 Y67.101 E.01884
G1 X86.564 Y66.914 E.00984
G1 X88.062 Y66.689 E.0475
G1 X88.749 Y66.873 E.0223
G1 X84.791 Y70.62 F9000
G1 F1200
G1 X135.228 Y70.621 E1.58142
G1 X135.998 Y70.69 E.02424
G1 X136.725 Y70.882 E.02358
G1 X137.466 Y71.22 E.02554
G1 X138.2 Y71.743 E.02826
G1 X138.735 Y72.289 E.02397
G1 X139.12 Y72.837 E.021
G1 X139.192 Y72.958 E.00441
G1 X139.518 Y73.675 E.0247
G1 X139.71 Y74.402 E.02358
G1 X139.78 Y75.191 E.02484
G1 X139.78 Y144.809 E2.18282
G1 X139.716 Y145.563 E.02373
G1 X139.685 Y145.701 E.00443
G1 X139.508 Y146.355 E.02124
G1 X139.18 Y147.066 E.02455
G1 X138.657 Y147.8 E.02826
G1 X138.111 Y148.335 E.02397
G1 X137.563 Y148.72 E.021
G1 X137.442 Y148.792 E.00441
G1 X136.725 Y149.118 E.0247
G1 X135.998 Y149.31 E.02358
G1 X135.209 Y149.38 E.02484
G1 X84.791 Y149.38 E1.58082
G1 X84.037 Y149.316 E.02373
G1 X83.899 Y149.285 E.00443
G1 X83.245 Y149.108 E.02124
G1 X82.534 Y148.78 E.02455
G1 X81.8 Y148.257 E.02826
G1 X81.265 Y147.711 E.02397
G1 X80.88 Y147.163 E.021
G1 X80.808 Y147.042 E.00441
G1 X80.482 Y146.325 E.0247
G1 X80.29 Y145.598 E.02358
G1 X80.22 Y144.809 E.02484
G1 X80.221 Y75.172 E2.18342
G1 X80.29 Y74.402 E.02424
G1 X80.492 Y73.645 E.02457
G1 X80.82 Y72.934 E.02455
G1 X81.343 Y72.2 E.02826
G1 X81.907 Y71.651 E.02468
G1 X82.534 Y71.22 E.02386
G1 X83.144 Y70.934 E.02112
G1 X83.275 Y70.882 E.00442
G1 X84.002 Y70.69 E.02358
G1 X84.734 Y70.624 E.02304
G1 E-3.5 F3600
;WIPE_START
G1 F7200
G1 X84.002 Y70.69 E-.34911
G1 X83.275 Y70.882 E-.35716
G1 X83.144 Y70.934 E-.06695
G1 X82.534 Y71.22 E-.32002
G1 X81.907 Y71.651 E-.3614
G1 X81.839 Y71.718 E-.04536
;WIPE_END
G1 X143.099 Y147.059 F9000
G1 E5 F2400
G1 F1200
G1 X143.099 Y76.077 E2.22559
G1 X143.039 Y75.837 E.00776
G1 X142.878 Y75.659 E.00753
G1 X143.099 Y74.776 E.02854
G1 X143.099 Y73.64 E.03562
G1 X142.828 Y72.557 E.035
G1 X142.759 Y72.481 E.00322
G1 X142.68 Y72.233 E.00816
G1 X142.68 Y147.728 E2.36709
G1 X142.503 Y148.329 E.01964
G1 X142.261 Y148.595 E.01128
G1 X142.261 Y71.452 E2.41876
G1 X142.216 Y71.402 E.00211
G1 X142.094 Y70.915 E.01574
G1 X141.842 Y70.632 E.01188
G1 X141.842 Y149.38 E2.46909
G1 X141.423 Y149.907 E.02111
G1 X141.423 Y70.089 E2.50264
G1 X141.004 Y69.623 E.01965
G1 X141.004 Y150.374 E2.53189
G1 X140.585 Y150.829 E.01939
G1 X140.585 Y69.192 E2.55967
G1 X140.441 Y69.048 E.00639
G1 X140.166 Y68.943 E.00923
G1 X140.166 Y151.075 E2.57519
G1 X140.104 Y151.097 E.00206
