; generated by PrusaSlicer 2.6.0+win64 on 2024-07-01 at 09:04:23 UTC


;
;

;
;
; 

; external perimeters extrusion width = 0.45mm
; perimeters extrusion width = 0.45mm
; infill extrusion width = 0.45mm
; solid infill extrusion width = 0.45mm
; top infill extrusion width = 0.45mm
; support material extrusion width = 0.38mm
; first layer extrusion width = 0.42mm

;TYPE:Custom
M413 S0 ; disable Power Loss Recovery
G90 ; use absolute coordinates
M83 ; extruder relative mode
M104 S120 ; set temporary nozzle temp to prevent oozing during homing and auto bed leveling
M140 S70 ; set final bed temp
G4 S10 ; allow partial nozzle warmup
G28 ; home all axis
;G29 ; run abl mesh
M420 S1 ; load mesh
G1 Z50 F240
G1 X2 Y10 F3000
M104 S240 ; set final nozzle temp
M190 S70 ; wait for bed temp to stabilize
M109 S240 ; wait for nozzle temp to stabilize
G1 Z0.28 F240
G92 E0
G1 Y140 E10 F1500 ; prime the nozzle
G1 X2.3 F5000
G92 E0
G1 Y10 E10 F1200 ; prime the nozzle
G92 E0
G21 ; set units to millimeters
G90 ; use absolute coordinates
M83 ; use relative distances for extrusion
; Filament gcode
M107
;LAYER_CHANGE
;Z:0.2
;HEIGHT:0.2
;BEFORE_LAYER_CHANGE
G92 E0
;0.2


G1 E-5 F3600
G1 Z.2 F9000
;AFTER_LAYER_CHANGE
;0.2
G1 X79.721 Y69.857
G1 E5 F2400
;TYPE:Skirt/Brim
;WIDTH:0.42
G1 F1200
G1 X80.619 Y69.128 E.03627
G1 X81.288 Y68.718 E.0246
G1 X82.7 Y68.133 E.04792
G1 X83.831 Y67.892 E.03626
G1 X84.614 Y67.83 E.02463
G1 X135.386 Y67.83 E1.59192
G1 X136.537 Y67.95 E.03628
G1 X137.3 Y68.133 E.0246
G1 X138.38 Y68.549 E.03629
G1 X139.683 Y69.347 E.04791
G1 X140.543 Y70.121 E.03628
G1 X141.304 Y71.071 E.03817
G1 X141.851 Y72.02 E.03434
G1 X142.151 Y72.745 E.0246
G1 X142.45 Y73.863 E.03629
G1 X142.57 Y75.013 E.03625
G1 X142.577 Y144.8 E2.18812
G1 X142.508 Y145.769 E.03046
G1 X142.267 Y146.9 E.03626
G1 X141.851 Y147.98 E.03629
G1 X141.272 Y148.981 E.03626
G1 X140.279 Y150.143 E.04792
G1 X139.381 Y150.872 E.03627
G1 X138.712 Y151.282 E.0246
G1 X137.3 Y151.867 E.04792
G1 X136.169 Y152.108 E.03626
G1 X135.2 Y152.177 E.03046
G1 X84.8 Y152.177 E1.58026
G1 X83.831 Y152.108 E.03046
G1 X82.7 Y151.867 E.03626
G1 X81.62 Y151.451 E.03629
G1 X80.619 Y150.872 E.03626
G1 X79.457 Y149.879 E.04792
G1 X78.947 Y149.283 E.02459
G1 X78.318 Y148.312 E.03627
G1 X77.733 Y146.9 E.04792
G1 X77.492 Y145.769 E.03626
G1 X77.423 Y144.8 E.03046
G1 X77.423 Y75.2 E2.18226
G1 X77.492 Y74.231 E.03046
G1 X77.733 Y73.1 E.03626
G1 X78.149 Y72.02 E.03629
G1 X78.728 Y71.019 E.03626
G1 X79.682 Y69.903 E.04603
G1 E-3.5 F3600
;WIPE_START
G1 F7200
G1 X80.619 Y69.128 E-.57759
G1 X81.288 Y68.718 E-.3727
G1 X82.357 Y68.275 E-.54971
;WIPE_END
G1 X119.37 Y91.494 F9000
G1 E5 F2400
;TYPE:Support material
G1 F1200
G1 X119.496 Y91.498 E.00395
G1 X119.928 Y91.6 E.01392
G1 X120.328 Y91.795 E.01395
G1 X120.675 Y92.073 E.01394
G1 X120.953 Y92.42 E.01394
G1 X121.148 Y92.819 E.01392
G1 X121.231 Y93.127 E.01
G1 X121.266 Y93.57 E.01393
G1 X121.202 Y94.01 E.01394
G1 X121.043 Y94.425 E.01393
G1 X120.797 Y94.795 E.01393
G1 X120.708 Y94.884 E.00395
G1 X120.475 Y95.103 E.01003
G1 X120.094 Y95.332 E.01394
G1 X119.669 Y95.473 E.01404
G1 X119.226 Y95.517 E.01396
G1 X118.785 Y95.463 E.01393
G1 X118.366 Y95.314 E.01394
G1 X117.991 Y95.076 E.01393
G1 X117.76 Y94.856 E.01
G1 X117.676 Y94.762 E.00395
G1 X117.439 Y94.386 E.01394
G1 X117.289 Y93.968 E.01392
G1 X117.235 Y93.527 E.01393
G1 X117.254 Y93.208 E.01002
G1 X117.366 Y92.778 E.01393
G1 X117.57 Y92.383 E.01394
G1 X117.855 Y92.042 E.01393
G1 X118.209 Y91.772 E.01396
G1 X118.614 Y91.586 E.01397
G1 X119.051 Y91.493 E.01401
G1 X119.313 Y91.494 E.00821
G1 X120.893 Y94.342 F9000
G1 F1200
G1 X120.893 Y93.177 E.03653
G1 X120.792 Y92.844 E.01091
G1 X120.662 Y92.597 E.00875
G1 X120.474 Y92.361 E.00946
G1 X120.474 Y94.638 E.07139
G1 X120.268 Y94.832 E.00887
G1 X120.055 Y94.96 E.00779
G1 X120.055 Y92.034 E.09174
G1 X119.812 Y91.92 E.00842
G1 X119.636 Y91.877 E.00568
G1 X119.636 Y95.126 E.10187
G1 X119.217 Y95.175 E.01323
G1 X119.217 Y91.833 E.10479
G1 X119.085 Y91.832 E.00414
G1 X118.799 Y91.893 E.00917
G1 X118.799 Y95.109 E.10084
G1 X118.518 Y95.009 E.00935
G1 X118.38 Y94.925 E.00507
G1 X118.38 Y92.068 E.08958
G1 X118.092 Y92.288 E.01136
G1 X117.961 Y92.441 E.00632
G1 X117.961 Y94.812 E.07434
G1 E-3.5 F3600
;WIPE_START
G1 F7200
G1 X117.961 Y92.441 E-1.12622
G1 X118.092 Y92.288 E-.09567
G1 X118.38 Y92.068 E-.17215
G1 X118.38 Y92.291 E-.10596
;WIPE_END
G1 X91.77 Y134.502 F9000
G1 E5 F2400
G1 F1200
G1 X92.201 Y134.609 E.01392
G1 X92.599 Y134.808 E.01395
G1 X92.943 Y135.09 E.01395
G1 X93.024 Y135.186 E.00394
G1 X93.217 Y135.44 E.01
G1 X93.407 Y135.842 E.01394
G1 X93.505 Y136.276 E.01395
G1 X93.505 Y136.724 E.01405
G1 X93.407 Y137.158 E.01395
G1 X93.217 Y137.56 E.01394
G1 X92.943 Y137.91 E.01394
G1 X92.7 Y138.116 E.00999
G1 X92.599 Y138.192 E.00396
G1 X92.201 Y138.391 E.01395
G1 X91.77 Y138.498 E.01392
G1 X91.326 Y138.508 E.01392
G1 X91.011 Y138.456 E.01001
G1 X90.594 Y138.302 E.01394
G1 X90.221 Y138.06 E.01394
G1 X89.91 Y137.743 E.01392
G1 X89.677 Y137.364 E.01395
G1 X89.634 Y137.246 E.00394
G1 X89.532 Y136.944 E.00999
G1 X89.483 Y136.5 E.01401
G1 X89.532 Y136.056 E.01401
G1 X89.677 Y135.636 E.01393
G1 X89.91 Y135.257 E.01395
G1 X90.221 Y134.94 E.01392
G1 X90.594 Y134.698 E.01394
G1 X91.011 Y134.544 E.01394
G1 X91.326 Y134.492 E.01001
G1 X91.714 Y134.499 E.01217
G1 X92.822 Y137.79 F9000
G1 F1200
G1 X92.822 Y135.482 E.07237
G1 X92.701 Y135.33 E.00609
G1 X92.403 Y135.089 E.01202
G1 X92.403 Y137.911 E.08848
G1 X92.17 Y138.035 E.00828
G1 X91.984 Y138.099 E.00617
G1 X91.984 Y134.901 E.10027
G1 X91.731 Y134.84 E.00816
G1 X91.565 Y134.831 E.00521
G1 X91.565 Y138.169 E.10466
G1 X91.363 Y138.17 E.00633
G1 X91.146 Y138.135 E.00689
G1 X91.146 Y134.865 E.10253
G1 X91.002 Y134.9 E.00465
G1 X90.727 Y135.013 E.00932
G1 X90.727 Y137.987 E.09325
G1 X90.434 Y137.795 E.01098
G1 X90.308 Y137.669 E.00559
G1 X90.308 Y135.331 E.07331
G1 X90.178 Y135.469 E.00594
G1 X89.985 Y135.783 E.01156
G1 X89.889 Y136.06 E.00919
G1 X89.889 Y137.388 E.04164
G1 E-3.5 F3600
;WIPE_START
G1 F7200
G1 X89.889 Y136.06 E-.6308
G1 X89.985 Y135.783 E-.13925
G1 X90.178 Y135.469 E-.17507
G1 X90.308 Y135.331 E-.09005
G1 X90.308 Y136.31 E-.46483
;WIPE_END
G1 X80.603 Y128.799 F9000
G1 E5 F2400
;TYPE:Perimeter
;WIDTH:0.457189
G1 F1200
G1 X80.606 Y128.736 E.00217
;WIDTH:0.494379
G1 X80.624 Y128.321 E.01559
G1 X80.624 Y98.622 E1.11487
;WIDTH:0.516517
G1 X80.635 Y98.131 E.01934
G1 X80.611 Y97.839 E.01154
;WIDTH:0.468258
G1 X80.587 Y97.547 E.01036
;WIDTH:0.419999
G1 X80.587 Y75.227 E.69983
G1 X80.641 Y74.541 E.02158
G1 X80.795 Y73.899 E.0207
G1 X81.048 Y73.288 E.02073
G1 X81.393 Y72.725 E.0207
G1 X81.823 Y72.223 E.02072
G1 X82.325 Y71.793 E.02072
G1 X82.888 Y71.448 E.0207
G1 X83.499 Y71.195 E.02073
G1 X84.141 Y71.041 E.0207
G1 X84.827 Y70.987 E.02158
G1 X90.762 Y70.987 E.18609
;WIDTH:0.454428
G1 X90.985 Y71.004 E.00765
;WIDTH:0.488857
G1 X91.209 Y71.022 E.00833
;WIDTH:0.523285
G1 X91.432 Y71.039 E.00893
G1 X91.993 Y71.024 E.02242
;WIDTH:0.494373
G1 X128.007 Y71.024 E1.35191
;WIDTH:0.523285
G1 X128.568 Y71.039 E.02242
G1 X128.791 Y71.022 E.00893
;WIDTH:0.488857
G1 X129.015 Y71.004 E.00833
;WIDTH:0.454428
G1 X129.238 Y70.987 E.00765
;WIDTH:0.419999
G1 X135.173 Y70.987 E.18609
G1 X135.695 Y71.028 E.01642
G1 X136.113 Y71.102 E.01331
G1 X136.685 Y71.271 E.0187
G1 X137.16 Y71.478 E.01625
G1 X137.72 Y71.832 E.02077
G1 X138.219 Y72.271 E.02084
G1 X138.643 Y72.784 E.02087
G1 X138.978 Y73.353 E.0207
G1 X139.222 Y73.97 E.0208
G1 X139.365 Y74.617 E.02078
G1 X139.413 Y75.267 E.02044
G1 X139.413 Y96.85 E.67672
;WIDTH:0.457187
G1 X139.394 Y97.264 E.01428
;WIDTH:0.494378
G1 X139.376 Y97.679 E.01559
G1 X139.376 Y128.321 E1.15027
;WIDTH:0.500654
G1 X139.393 Y128.808 E.01855
;WIDTH:0.460327
G1 X139.413 Y129.15 E.01189
;WIDTH:0.419999
G1 X139.413 Y144.773 E.48985
G1 X139.359 Y145.459 E.02158
G1 X139.205 Y146.101 E.0207
G1 X138.952 Y146.712 E.02073
G1 X138.607 Y147.275 E.0207
G1 X138.177 Y147.777 E.02072
G1 X137.675 Y148.207 E.02072
G1 X137.112 Y148.552 E.0207
G1 X136.501 Y148.805 E.02073
G1 X135.859 Y148.959 E.0207
G1 X135.173 Y149.013 E.02158
G1 X129.238 Y149.013 E.18609
;WIDTH:0.454432
G1 X129.015 Y148.996 E.00765
;WIDTH:0.488864
G1 X128.791 Y148.978 E.00833
;WIDTH:0.523296
G1 X128.568 Y148.961 E.00893
G1 X128.007 Y148.976 E.02242
;WIDTH:0.494381
G1 X91.993 Y148.976 E1.35193
;WIDTH:0.523297
G1 X91.432 Y148.961 E.02242
G1 X91.209 Y148.978 E.00893
;WIDTH:0.488865
G1 X90.985 Y148.996 E.00833
;WIDTH:0.454432
G1 X90.762 Y149.013 E.00765
;WIDTH:0.419999
G1 X84.827 Y149.013 E.18609
G1 X84.141 Y148.959 E.02158
G1 X83.499 Y148.805 E.0207
G1 X82.888 Y148.552 E.02073
G1 X82.325 Y148.207 E.0207
G1 X81.823 Y147.777 E.02072
G1 X81.393 Y147.275 E.02072
G1 X81.048 Y146.712 E.0207
G1 X80.795 Y146.101 E.02073
G1 X80.641 Y145.459 E.0207
G1 X80.587 Y144.773 E.02158
G1 X80.587 Y129.15 E.48985
;WIDTH:0.457189
G1 X80.6 Y128.859 E.01003
G1 E-3.5 F3600
;WIPE_START
G1 F7200
G1 X80.606 Y128.736 E-.05849
G1 X80.624 Y128.321 E-.19731
G1 X80.624 Y125.702 E-1.2442
;WIPE_END
G1 X80.267 Y145.518 F9000
G1 E5 F2400
;TYPE:External perimeter
;WIDTH:0.419999
G1 F1200
G1 X80.21 Y144.788 E.02296
G1 X80.21 Y75.212 E2.1815
G1 X80.267 Y74.482 E.02296
G1 X80.436 Y73.782 E.02258
G1 X80.711 Y73.117 E.02256
G1 X81.087 Y72.503 E.02257
G1 X81.555 Y71.955 E.0226
G1 X82.103 Y71.487 E.0226
G1 X82.717 Y71.111 E.02257
G1 X83.382 Y70.836 E.02256
G1 X84.082 Y70.667 E.02258
G1 X84.812 Y70.61 E.02296
G1 X135.188 Y70.61 E1.5795
G1 X135.918 Y70.667 E.02296
G1 X136.618 Y70.836 E.02258
G1 X137.283 Y71.111 E.02256
G1 X137.897 Y71.487 E.02257
G1 X138.445 Y71.955 E.0226
G1 X138.913 Y72.503 E.0226
G1 X139.289 Y73.117 E.02257
G1 X139.525 Y73.687 E.01934
G1 X139.663 Y74.193 E.01644
G1 X139.753 Y74.74 E.01738
G1 X139.79 Y75.267 E.01656
G1 X139.79 Y144.788 E2.17978
G1 X139.733 Y145.518 E.02296
G1 X139.564 Y146.218 E.02258
G1 X139.289 Y146.883 E.02256
G1 X138.913 Y147.497 E.02257
G1 X138.445 Y148.045 E.0226
G1 X137.897 Y148.513 E.0226
G1 X137.283 Y148.889 E.02257
G1 X136.618 Y149.164 E.02256
G1 X135.918 Y149.333 E.02258
G1 X135.188 Y149.39 E.02296
G1 X84.812 Y149.39 E1.5795
G1 X84.082 Y149.333 E.02296
G1 X83.382 Y149.164 E.02258
G1 X82.717 Y148.889 E.02256
G1 X82.103 Y148.513 E.02257
G1 X81.555 Y148.045 E.0226
G1 X81.087 Y147.497 E.0226
G1 X80.711 Y146.883 E.02257
G1 X80.436 Y146.218 E.02256
G1 X80.281 Y145.576 E.02071
G1 X80.578 Y145.266 F9000
G1 E-3.5 F3600
;WIPE_START
G1 F7200
G1 X80.21 Y144.788 E-.37582
G1 X80.21 Y142.421 E-1.12418
;WIPE_END
G1 X136.217 Y72.602 F9000
G1 E5 F2400
;TYPE:Perimeter
G1 F1200
G1 X136.668 Y72.927 E.01743
G1 X137.07 Y73.419 E.01992
G1 X137.331 Y73.999 E.01994
G1 X137.437 Y74.665 E.02114
G1 X137.369 Y75.258 E.01871
G1 X137.144 Y75.853 E.01995
G1 X136.773 Y76.368 E.0199
G1 X136.281 Y76.77 E.01992
G1 X135.701 Y77.031 E.01994
G1 X135.074 Y77.133 E.01992
G1 X134.442 Y77.069 E.01992
G1 X133.847 Y76.844 E.01995
G1 X133.332 Y76.473 E.0199
G1 X132.93 Y75.981 E.01992
G1 X132.687 Y75.445 E.01845
G1 X132.567 Y74.774 E.02137
G1 X132.628 Y74.162 E.01928
G1 X132.838 Y73.592 E.01905
G1 X133.227 Y73.032 E.02138
G1 X133.72 Y72.63 E.01995
G1 X134.325 Y72.364 E.02072
G1 X134.926 Y72.267 E.01909
G1 X135.558 Y72.331 E.01992
G1 X136.168 Y72.567 E.02051
G1 X136.008 Y72.904 F9000
;TYPE:External perimeter
G1 F1200
G1 X136.439 Y73.226 E.01687
G1 X136.771 Y73.649 E.01686
G1 X136.983 Y74.143 E.01686
G1 X137.061 Y74.688 E.01726
G1 X136.996 Y75.209 E.01646
G1 X136.796 Y75.708 E.01686
G1 X136.474 Y76.139 E.01687
G1 X136.051 Y76.471 E.01686
G1 X135.557 Y76.683 E.01686
G1 X135.025 Y76.759 E.01685
G1 X134.491 Y76.696 E.01686
G1 X133.992 Y76.496 E.01686
G1 X133.561 Y76.174 E.01687
G1 X133.229 Y75.751 E.01686
G1 X133.017 Y75.257 E.01686
G1 X132.941 Y74.725 E.01685
G1 X133.002 Y74.211 E.01623
G1 X133.188 Y73.732 E.01611
G1 X133.526 Y73.261 E.01818
G1 X133.949 Y72.929 E.01686
G1 X134.466 Y72.714 E.01756
G1 X134.975 Y72.641 E.01612
G1 X135.509 Y72.704 E.01686
G1 X135.953 Y72.882 E.015
G1 X136.352 Y72.7 F9000
G1 E-3.5 F3600
;WIPE_START
G1 F7200
G1 X136.439 Y73.226 E-.28283
G1 X136.771 Y73.649 E-.25542
G1 X136.983 Y74.143 E-.25535
G1 X137.061 Y74.688 E-.26151
G1 X136.996 Y75.209 E-.24939
G1 X136.843 Y75.591 E-.1955
;WIPE_END
G1 X117.054 Y91.188 F9000
G1 E5 F2400
;TYPE:Perimeter
;WIDTH:0.444246
G1 F1200
G1 X117.408 Y90.916 E.0149
;WIDTH:0.419999
G1 X117.705 Y90.72 E.01116
G1 X118.187 Y90.498 E.01664
G1 X118.873 Y90.338 E.02209
G1 X119.578 Y90.332 E.02211
G1 X120.266 Y90.482 E.02208
G1 X120.905 Y90.78 E.02211
G1 X121.462 Y91.211 E.02208
G1 X121.91 Y91.754 E.02207
G1 X122.17 Y92.232 E.01706
G1 X122.361 Y92.835 E.01983
G1 X122.432 Y93.535 E.02206
G1 X122.347 Y94.234 E.02208
G1 X122.111 Y94.898 E.0221
G1 X121.733 Y95.493 E.0221
G1 X121.234 Y95.991 E.0221
G1 X120.638 Y96.366 E.02208
;WIDTH:0.461032
G1 X119.981 Y96.621 E.0245
G1 X119.276 Y96.698 E.02466
;WIDTH:0.44891
G1 X118.572 Y96.622 E.0239
;WIDTH:0.440166
G1 X117.903 Y96.395 E.02334
;WIDTH:0.442289
G1 X117.298 Y96.029 E.02348
;WIDTH:0.448988
G1 X116.861 Y95.613 E.02037
;WIDTH:0.451869
G1 X116.55 Y95.189 E.01788
G1 X116.3 Y94.717 E.01816
;WIDTH:0.451426
G1 X116.144 Y94.206 E.01815
G1 X116.061 Y93.691 E.01772
;WIDTH:0.445422
G1 X116.078 Y93.114 E.01932
;WIDTH:0.450385
G1 X116.193 Y92.6 E.01785
;WIDTH:0.450627
G1 X116.383 Y92.109 E.01785
G1 X116.645 Y91.651 E.01789
;WIDTH:0.446224
G1 X116.996 Y91.233 E.0183
;WIDTH:0.444246
G1 X117.007 Y91.225 E.00045
G1 X117.292 Y91.486 F9000
;TYPE:External perimeter
;WIDTH:0.419999
G1 F1200
G1 X117.783 Y91.104 E.01951
G1 X118.25 Y90.884 E.01619
G1 X118.952 Y90.706 E.02271
G1 X119.573 Y90.709 E.01947
G1 X120.179 Y90.849 E.0195
G1 X120.739 Y91.119 E.01949
G1 X121.225 Y91.505 E.01946
G1 X121.615 Y91.988 E.01946
G1 X121.828 Y92.394 E.01438
G1 X122.001 Y92.948 E.0182
G1 X122.056 Y93.566 E.01945
G1 X121.974 Y94.182 E.01948
G1 X121.758 Y94.764 E.01946
G1 X121.419 Y95.285 E.01949
G1 X120.973 Y95.719 E.01951
G1 X120.443 Y96.044 E.01949
G1 X119.856 Y96.244 E.01944
G1 X119.238 Y96.309 E.01948
G1 X118.62 Y96.238 E.0195
G1 X118.034 Y96.032 E.01948
G1 X117.507 Y95.701 E.01951
G1 X117.139 Y95.337 E.01623
G1 X116.733 Y94.741 E.02261
G1 X116.565 Y94.314 E.01439
G1 X116.454 Y93.745 E.01818
G1 X116.468 Y93.126 E.01941
G1 X116.618 Y92.521 E.01954
G1 X116.897 Y91.966 E.01948
G1 X117.254 Y91.532 E.01762
G1 X117.194 Y91.098 F9000
G1 E-3.5 F3600
;WIPE_START
G1 F7200
G1 X117.783 Y91.104 E-.32322
G1 X118.25 Y90.884 E-.24521
G1 X118.952 Y90.706 E-.344
G1 X119.573 Y90.709 E-.29498
G1 X120.173 Y90.848 E-.29259
;WIPE_END
G1 X128.573 Y77.815 F9000
G1 E5 F2400
;TYPE:Perimeter
G1 F1200
G1 X128.07 Y77.884 E.01592
G1 X127.084 Y77.887 E.03092
G1 X91.993 Y77.887 E1.10025
G1 X91.464 Y77.831 E.01668
G1 X90.892 Y77.646 E.01885
G1 X90.376 Y77.338 E.01884
G1 X89.941 Y76.923 E.01885
G1 X89.66 Y76.503 E.01584
G1 X89.554 Y76.308 E.00696
G1 X89.369 Y75.736 E.01885
G1 X89.313 Y75.231 E.01593
G1 X89.313 Y74.193 E.03255
G1 X89.369 Y73.664 E.01668
G1 X89.554 Y73.092 E.01885
G1 X89.862 Y72.576 E.01884
G1 X90.277 Y72.141 E.01885
G1 X90.778 Y71.809 E.01884
;WIDTH:0.454419
G1 X91.054 Y71.687 E.01033
;WIDTH:0.488838
G1 X91.33 Y71.565 E.01119
;WIDTH:0.523285
G1 X91.459 Y71.518 E.00548
G1 X91.993 Y71.476 E.0214
;WIDTH:0.494373
G1 X128.007 Y71.476 E1.35191
;WIDTH:0.523285
G1 X128.541 Y71.518 E.0214
G1 X128.73 Y71.596 E.00817
;WIDTH:0.488857
G1 X128.919 Y71.675 E.0076
;WIDTH:0.454428
G1 X129.108 Y71.754 E.00701
;WIDTH:0.419999
G1 X129.624 Y72.062 E.01884
G1 X130.059 Y72.477 E.01885
G1 X130.391 Y72.978 E.01884
G1 X130.589 Y73.502 E.01756
G1 X130.684 Y74.13 E.01991
G1 X130.687 Y75.207 E.03377
G1 X130.631 Y75.736 E.01668
G1 X130.446 Y76.308 E.01885
G1 X130.138 Y76.824 E.01884
G1 X129.723 Y77.259 E.01885
G1 X129.222 Y77.591 E.01884
G1 X128.632 Y77.807 E.0197
G1 X128.518 Y77.452 F9000
;TYPE:External perimeter
G1 F1200
G1 X128.019 Y77.51 E.01575
G1 X91.993 Y77.51 E1.12957
G1 X91.486 Y77.453 E.016
G1 X90.996 Y77.281 E.01628
G1 X90.567 Y77.013 E.01586
G1 X90.207 Y76.657 E.01587
G1 X89.928 Y76.221 E.01623
G1 X89.744 Y75.693 E.01753
G1 X89.69 Y74.897 E.02502
G1 X89.69 Y74.193 E.02207
