; generated by PrusaSlicer 2.6.0+win64 on 2024-07-01 at 09:07:37 UTC


;
;

;
;
; 

; external perimeters extrusion width = 0.45mm
; perimeters extrusion width = 0.45mm
; infill extrusion width = 0.45mm
; solid infill extrusion width = 0.45mm
; top infill extrusion width = 0.45mm
; first layer extrusion width = 0.42mm

;TYPE:Custom
M413 S0 ; disable Power Loss Recovery
G90 ; use absolute coordinates
M83 ; extruder relative mode
M104 S120 ; set temporary nozzle temp to prevent oozing during homing and auto bed leveling
M140 S70 ; set final bed temp
G4 S10 ; allow partial nozzle warmup
G28 ; home all axis
;G29 ; run abl mesh
M420 S1 ; load mesh
G1 Z50 F240
G1 X2 Y10 F3000
M104 S240 ; set final nozzle temp
M190 S70 ; wait for bed temp to stabilize
M109 S240 ; wait for nozzle temp to stabilize
G1 Z0.28 F240
G92 E0
G1 Y140 E10 F1500 ; prime the nozzle
G1 X2.3 F5000
G92 E0
G1 Y10 E10 F1200 ; prime the nozzle
G92 E0
G21 ; set units to millimeters
G90 ; use absolute coordinates
M83 ; use relative distances for extrusion
; Filament gcode
M107
;LAYER_CHANGE
;Z:0.2
;HEIGHT:0.2
;BEFORE_LAYER_CHANGE
G92 E0
;0.2


G1 E-5 F3600
G1 Z.2 F9000
;AFTER_LAYER_CHANGE
;0.2
G1 X79.715 Y69.867
G1 E5 F2400
;TYPE:Skirt/Brim
;WIDTH:0.42
G1 F1200
G1 X80.54 Y69.179 E.03368
G1 X81.426 Y68.64 E.03252
G1 X82.736 Y68.124 E.04415
G1 X83.676 Y67.909 E.03023
G1 X84.637 Y67.828 E.03024
G1 X135.325 Y67.826 E1.58929
G1 X136.555 Y67.954 E.03877
G1 X137.588 Y68.222 E.03346
G1 X138.362 Y68.541 E.02625
G1 X139.406 Y69.143 E.03779
G1 X140.399 Y69.966 E.04044
G1 X141.165 Y70.859 E.03689
G1 X141.859 Y72.037 E.04287
G1 X142.196 Y72.862 E.02794
G1 X142.449 Y73.857 E.03219
G1 X142.569 Y74.999 E.036
G1 X142.577 Y144.8 E2.18856
G1 X142.49 Y145.925 E.03538
G1 X142.205 Y147.113 E.03831
G1 X141.741 Y148.209 E.03732
G1 X141.205 Y149.083 E.03215
G1 X140.264 Y150.157 E.04477
G1 X139.46 Y150.82 E.03267
G1 X138.574 Y151.36 E.03253
G1 X137.263 Y151.876 E.04417
G1 X136.323 Y152.091 E.03023
G1 X135.327 Y152.174 E.03134
G1 X84.8 Y152.177 E1.58424
G1 X83.612 Y152.08 E.03737
G1 X82.545 Y151.823 E.03441
G1 X81.443 Y151.369 E.03737
G1 X80.594 Y150.856 E.0311
G1 X79.462 Y149.886 E.04674
G1 X78.836 Y149.141 E.03051
G1 X78.284 Y148.255 E.03273
G1 X77.733 Y146.899 E.04589
G1 X77.51 Y145.925 E.03133
G1 X77.423 Y144.8 E.03538
G1 X77.423 Y75.2 E2.18226
G1 X77.51 Y74.075 E.03538
G1 X77.795 Y72.886 E.03834
G1 X78.259 Y71.791 E.03729
G1 X78.795 Y70.917 E.03215
G1 X79.675 Y69.912 E.04188
G1 E-3.5 F3600
;WIPE_START
G1 F7200
G1 X80.54 Y69.179 E-.53856
G1 X81.426 Y68.64 E-.49261
G1 X82.344 Y68.278 E-.46883
;WIPE_END
G1 X81.588 Y72.499 F9000
G1 E5 F2400
;TYPE:Perimeter
;WIDTH:0.621362
G1 F1200
G1 X81.576 Y72.567 E.00332
;WIDTH:0.578993
G1 X81.563 Y72.635 E.00309
;WIDTH:0.536624
G1 X81.551 Y72.703 E.00283
;WIDTH:0.494254
G1 X81.539 Y72.771 E.00259
;WIDTH:0.451885
G1 X81.526 Y72.839 E.00235
;WIDTH:0.409516
G1 X81.514 Y72.906 E.00207
;WIDTH:0.404423
G1 X81.286 Y73.374 E.01565
;WIDTH:0.442779
G1 X81.094 Y73.981 E.02117
;WIDTH:0.484261
G1 X81.007 Y74.653 E.02487
;WIDTH:0.530949
G1 X81.029 Y75.213 E.02274
G1 X81.083 Y75.54 E.01345
;WIDTH:0.511927
G1 X81.223 Y75.903 E.01517
;WIDTH:0.465963
G1 X81.363 Y76.267 E.01372
;WIDTH:0.419999
G1 X81.738 Y76.946 E.02432
G1 X82.239 Y77.539 E.02434
G1 X82.846 Y78.023 E.02434
G1 X83.433 Y78.337 E.02087
G1 X83.665 Y78.419 E.00772
G1 X84.282 Y78.595 E.02012
G1 X85.055 Y78.66 E.02432
;WIDTH:0.44509
G1 X85.831 Y78.585 E.02607
G1 X86.468 Y78.391 E.02227
;WIDTH:0.45033
G1 X86.956 Y78.146 E.0185
G1 X87.428 Y77.832 E.0192
G1 X87.861 Y77.454 E.01947
;WIDTH:0.445161
G1 X88.271 Y76.953 E.02165
;WIDTH:0.450137
G1 X88.543 Y76.474 E.01865
;WIDTH:0.450367
G1 X88.76 Y75.951 E.01918
G1 X88.905 Y75.419 E.01868
;WIDTH:0.441091
G1 X88.954 Y74.645 E.02568
;WIDTH:0.423883
G1 X88.875 Y73.873 E.02458
G1 X88.68 Y73.236 E.0211
;WIDTH:0.419999
G1 X88.262 Y72.454 E.0278
G1 X87.761 Y71.861 E.02434
G1 X87.154 Y71.377 E.02434
G1 X86.567 Y71.063 E.02087
G1 X86.025 Y70.887 E.01787
G1 X90.745 Y70.887 E.14799
;WIDTH:0.458358
G1 X90.915 Y70.906 E.00591
;WIDTH:0.496716
G1 X91.086 Y70.925 E.00649
;WIDTH:0.535074
G1 X91.256 Y70.945 E.007
;WIDTH:0.573432
G1 X91.426 Y70.964 E.00755
G1 X91.993 Y70.949 E.02502
;WIDTH:0.544353
G1 X128.007 Y70.95 E1.50158
;WIDTH:0.573289
G1 X128.574 Y70.964 E.02501
G1 X128.744 Y70.945 E.00754
;WIDTH:0.534967
G1 X128.914 Y70.926 E.007
;WIDTH:0.496644
G1 X129.085 Y70.907 E.00649
;WIDTH:0.458322
G1 X129.255 Y70.887 E.00591
;WIDTH:0.419999
G1 X133.974 Y70.887 E.14796
G1 X133.433 Y71.063 E.01784
G1 X132.754 Y71.438 E.02432
G1 X132.161 Y71.939 E.02434
G1 X131.677 Y72.546 E.02434
G1 X131.32 Y73.236 E.02436
;WIDTH:0.423883
G1 X131.125 Y73.873 E.0211
;WIDTH:0.429698
G1 X131.078 Y74.212 E.01101
G1 X131.046 Y74.755 E.01749
;WIDTH:0.442177
G1 X131.096 Y75.434 E.0226
;WIDTH:0.450365
G1 X131.24 Y75.951 E.01818
G1 X131.457 Y76.474 E.01918
;WIDTH:0.450135
G1 X131.749 Y76.979 E.01975
;WIDTH:0.445598
G1 X132.152 Y77.468 E.02122
;WIDTH:0.450285
G1 X132.572 Y77.832 E.01883
G1 X133.044 Y78.146 E.0192
G1 X133.568 Y78.403 E.01977
;WIDTH:0.449744
G1 X134.28 Y78.609 E.02507
G1 X135.055 Y78.66 E.02627
;WIDTH:0.419999
G1 X135.827 Y78.573 E.02436
G1 X136.567 Y78.337 E.02435
G1 X137.246 Y77.962 E.02432
G1 X137.839 Y77.461 E.02434
G1 X138.323 Y76.854 E.02434
G1 X138.68 Y76.164 E.02436
;WIDTH:0.465961
G1 X138.798 Y75.852 E.01173
;WIDTH:0.511922
G1 X138.917 Y75.54 E.01302
;WIDTH:0.530919
G1 X138.971 Y75.213 E.01345
G1 X138.987 Y74.587 E.02541
;WIDTH:0.484873
G1 X138.932 Y74.229 E.01331
;WIDTH:0.457517
G1 X138.878 Y73.872 E.01245
;WIDTH:0.430161
G1 X138.714 Y73.374 E.01688
;WIDTH:0.404421
G1 X138.486 Y72.906 E.01565
;WIDTH:0.409514
G1 X138.474 Y72.839 E.00207
;WIDTH:0.451884
G1 X138.461 Y72.771 E.00235
;WIDTH:0.494254
G1 X138.449 Y72.703 E.00259
;WIDTH:0.536624
G1 X138.437 Y72.635 E.00283
;WIDTH:0.578994
G1 X138.424 Y72.567 E.00309
;WIDTH:0.621364
G1 X138.412 Y72.499 E.00332
G1 X138.471 Y72.54 E.00346
;WIDTH:0.578994
G1 X138.531 Y72.581 E.00324
;WIDTH:0.536624
G1 X138.59 Y72.622 E.00295
;WIDTH:0.494254
G1 X138.649 Y72.663 E.0027
;WIDTH:0.451884
G1 X138.708 Y72.704 E.00244
;WIDTH:0.409514
G1 X138.767 Y72.745 E.00219
;WIDTH:0.404421
G1 X139.053 Y73.252 E.0175
;WIDTH:0.44278
G1 X139.299 Y73.914 E.02348
;WIDTH:0.484259
G1 X139.433 Y74.618 E.0263
;WIDTH:0.530919
G1 X139.457 Y75.237 E.02514
G1 X139.467 Y75.622 E.01563
;WIDTH:0.511922
G1 X139.49 Y75.955 E.01302
;WIDTH:0.465961
G1 X139.513 Y76.288 E.01174
;WIDTH:0.419999
G1 X139.513 Y143.712 E2.11403
;WIDTH:0.456982
G1 X139.494 Y144.069 E.01231
;WIDTH:0.493965
G1 X139.475 Y144.425 E.01337
;WIDTH:0.530948
G1 X139.422 Y145.486 E.04311
;WIDTH:0.484872
G1 X139.332 Y145.872 E.01457
;WIDTH:0.457516
G1 X139.242 Y146.259 E.0137
;WIDTH:0.430159
G1 X139.041 Y146.773 E.01777
;WIDTH:0.40442
G1 X138.767 Y147.255 E.01667
;WIDTH:0.409512
G1 X138.708 Y147.296 E.00219
;WIDTH:0.451881
G1 X138.649 Y147.337 E.00244
;WIDTH:0.49425
G1 X138.59 Y147.378 E.0027
;WIDTH:0.53662
G1 X138.531 Y147.419 E.00295
;WIDTH:0.578989
G1 X138.471 Y147.46 E.00324
;WIDTH:0.621358
G1 X138.412 Y147.501 E.00346
G1 X138.424 Y147.433 E.00332
;WIDTH:0.578989
G1 X138.437 Y147.365 E.00309
;WIDTH:0.53662
G1 X138.449 Y147.297 E.00283
;WIDTH:0.49425
G1 X138.461 Y147.229 E.00259
;WIDTH:0.451881
G1 X138.474 Y147.161 E.00235
;WIDTH:0.409512
G1 X138.486 Y147.093 E.0021
;WIDTH:0.40442
G1 X138.714 Y146.626 E.01562
;WIDTH:0.44278
G1 X138.906 Y146.019 E.02117
;WIDTH:0.49068
G1 X138.995 Y145.241 E.02915
;WIDTH:0.516007
G1 X138.975 Y144.908 E.01312
;WIDTH:0.541333
G1 X138.955 Y144.576 E.01378
G1 X138.93 Y144.52 E.00254
;WIDTH:0.514924
G1 X138.906 Y144.463 E.00243
;WIDTH:0.488514
G1 X138.772 Y144.098 E.01441
;WIDTH:0.454257
G1 X138.637 Y143.733 E.01331
;WIDTH:0.419999
G1 X138.262 Y143.054 E.02432
G1 X137.761 Y142.461 E.02434
G1 X137.154 Y141.977 E.02434
G1 X136.567 Y141.663 E.02087
G1 X136.335 Y141.581 E.00772
G1 X135.718 Y141.405 E.02012
G1 X134.945 Y141.34 E.02432
;WIDTH:0.445092
G1 X134.169 Y141.415 E.02607
G1 X133.532 Y141.609 E.02227
;WIDTH:0.450329
G1 X133.044 Y141.854 E.0185
G1 X132.572 Y142.168 E.0192
G1 X132.139 Y142.546 E.01947
;WIDTH:0.445158
G1 X131.729 Y143.047 E.02165
;WIDTH:0.450132
G1 X131.457 Y143.526 E.01865
;WIDTH:0.450365
G1 X131.24 Y144.049 E.01918
G1 X131.095 Y144.581 E.01868
;WIDTH:0.441091
G1 X131.046 Y145.355 E.02568
;WIDTH:0.422269
G1 X131.126 Y146.127 E.02448
G1 X131.32 Y146.764 E.021
;WIDTH:0.419999
G1 X131.738 Y147.546 E.0278
G1 X132.239 Y148.139 E.02434
G1 X132.846 Y148.623 E.02434
G1 X133.433 Y148.937 E.02087
G1 X133.975 Y149.113 E.01787
G1 X129.255 Y149.113 E.14799
;WIDTH:0.458363
G1 X129.085 Y149.094 E.00591
;WIDTH:0.496727
G1 X128.914 Y149.075 E.00649
;WIDTH:0.535091
G1 X128.744 Y149.055 E.00701
;WIDTH:0.573454
G1 X128.574 Y149.036 E.00755
G1 X128.007 Y149.051 E.02502
;WIDTH:0.544381
G1 X91.993 Y149.051 E1.50166
;WIDTH:0.573454
G1 X91.426 Y149.036 E.02502
G1 X91.256 Y149.055 E.00755
;WIDTH:0.535091
G1 X91.086 Y149.075 E.00701
;WIDTH:0.496727
G1 X90.915 Y149.094 E.00649
;WIDTH:0.458363
G1 X90.745 Y149.113 E.00591
;WIDTH:0.419999
G1 X86.025 Y149.113 E.14799
G1 X86.567 Y148.937 E.01787
G1 X87.246 Y148.562 E.02432
G1 X87.839 Y148.061 E.02434
G1 X88.323 Y147.454 E.02434
G1 X88.645 Y146.851 E.02143
G1 X88.825 Y146.286 E.01859
;WIDTH:0.429699
G1 X88.922 Y145.788 E.01632
G1 X88.954 Y145.245 E.01749
;WIDTH:0.442177
G1 X88.904 Y144.566 E.0226
;WIDTH:0.450366
G1 X88.76 Y144.049 E.01818
G1 X88.543 Y143.526 E.01918
;WIDTH:0.450133
G1 X88.251 Y143.021 E.01975
;WIDTH:0.445599
G1 X87.848 Y142.532 E.02122
;WIDTH:0.450307
G1 X87.428 Y142.168 E.01883
G1 X86.956 Y141.854 E.0192
G1 X86.432 Y141.597 E.01977
G1 X85.72 Y141.39 E.02512
G1 X84.945 Y141.34 E.02631
;WIDTH:0.419999
G1 X84.173 Y141.427 E.02436
G1 X83.433 Y141.663 E.02435
G1 X82.754 Y142.038 E.02432
G1 X82.161 Y142.539 E.02434
G1 X81.677 Y143.146 E.02434
G1 X81.32 Y143.836 E.02436
;WIDTH:0.460444
G1 X81.229 Y144.083 E.00914
;WIDTH:0.500888
G1 X81.137 Y144.329 E.01
;WIDTH:0.541332
G1 X81.045 Y144.576 E.01092
G1 X81.029 Y144.787 E.00877
;WIDTH:0.530947
G1 X81.013 Y145.413 E.02541
;WIDTH:0.484875
G1 X81.068 Y145.771 E.01331
;WIDTH:0.457518
G1 X81.122 Y146.128 E.01245
;WIDTH:0.430161
G1 X81.286 Y146.626 E.01688
;WIDTH:0.404423
G1 X81.514 Y147.094 E.01565
;WIDTH:0.409516
G1 X81.526 Y147.162 E.0021
;WIDTH:0.451888
G1 X81.539 Y147.229 E.00232
;WIDTH:0.49426
G1 X81.551 Y147.297 E.00259
;WIDTH:0.536632
G1 X81.563 Y147.365 E.00283
;WIDTH:0.579004
G1 X81.576 Y147.433 E.00309
;WIDTH:0.621376
G1 X81.588 Y147.501 E.00332
G1 X81.529 Y147.46 E.00346
;WIDTH:0.579004
G1 X81.469 Y147.419 E.00324
;WIDTH:0.536632
G1 X81.41 Y147.378 E.00295
;WIDTH:0.49426
G1 X81.351 Y147.337 E.0027
;WIDTH:0.451888
G1 X81.292 Y147.296 E.00244
;WIDTH:0.409516
G1 X81.233 Y147.255 E.00219
;WIDTH:0.404423
G1 X80.947 Y146.748 E.0175
;WIDTH:0.442779
G1 X80.701 Y146.086 E.02348
;WIDTH:0.490683
G1 X80.559 Y145.237 E.03205
G1 X80.521 Y144.378 E.03201
;WIDTH:0.488511
G1 X80.504 Y144.045 E.01235
;WIDTH:0.454255
G1 X80.487 Y143.712 E.0114
;WIDTH:0.419999
G1 X80.487 Y76.288 E2.11403
;WIDTH:0.456983
G1 X80.506 Y75.931 E.01231
;WIDTH:0.493966
G1 X80.525 Y75.575 E.01337
;WIDTH:0.530949
G1 X80.578 Y74.514 E.04311
;WIDTH:0.484875
G1 X80.668 Y74.128 E.01457
;WIDTH:0.457518
G1 X80.758 Y73.741 E.0137
;WIDTH:0.430161
G1 X80.959 Y73.227 E.01777
;WIDTH:0.404423
G1 X81.233 Y72.745 E.01667
;WIDTH:0.409516
G1 X81.292 Y72.704 E.00219
;WIDTH:0.451885
G1 X81.351 Y72.663 E.00244
;WIDTH:0.494254
G1 X81.41 Y72.622 E.0027
;WIDTH:0.536624
G1 X81.469 Y72.581 E.00295
;WIDTH:0.578993
G1 X81.529 Y72.54 E.00324
;WIDTH:0.621362
G1 X81.539 Y72.533 E.00059
G1 E-3.5 F3600
;WIPE_START
G1 F7200
G1 X81.576 Y72.567 E-.02387
G1 X81.563 Y72.635 E-.03288
G1 X81.551 Y72.703 E-.0328
G1 X81.539 Y72.771 E-.0328
G1 X81.526 Y72.839 E-.03288
G1 X81.514 Y72.906 E-.03233
G1 X81.286 Y73.374 E-.24728
G1 X81.094 Y73.981 E-.3024
G1 X81.007 Y74.653 E-.32186
G1 X81.029 Y75.213 E-.26621
G1 X81.083 Y75.54 E-.15743
G1 X81.096 Y75.574 E-.01726
;WIPE_END
G1 X83.267 Y70.775 F9000
G1 E5 F2400
;TYPE:External perimeter
;WIDTH:0.457597
G1 F1200
G1 X83.381 Y70.763 E.00395
;WIDTH:0.495194
G1 X83.495 Y70.752 E.00431
;WIDTH:0.532792
G1 X83.609 Y70.74 E.00467
;WIDTH:0.570389
G1 X84.268 Y70.616 E.02941
;WIDTH:0.546428
G1 X85.048 Y70.567 E.03272
;WIDTH:0.534849
G1 X85.818 Y70.565 E.0315
;WIDTH:0.529066
G1 X86.04 Y70.546 E.00901
;WIDTH:0.492711
G1 X86.262 Y70.528 E.00833
;WIDTH:0.456355
G1 X86.484 Y70.51 E.00766
;WIDTH:0.419999
G1 X133.516 Y70.51 E1.47465
;WIDTH:0.469125
G1 X133.773 Y70.535 E.00915
;WIDTH:0.518251
G1 X134.029 Y70.56 E.01017
;WIDTH:0.567376
G1 X134.286 Y70.584 E.01126
G1 X135.204 Y70.572 E.04004
;WIDTH:0.560283
G1 X135.944 Y70.643 E.03198
G1 X136.206 Y70.687 E.01143
;WIDTH:0.513522
G1 X136.469 Y70.731 E.01043
;WIDTH:0.466761
G1 X136.731 Y70.775 E.00936
;WIDTH:0.419999
G1 X137.328 Y71.021 E.02025
G1 X137.956 Y71.406 E.0231
G1 X138.515 Y71.884 E.02306
G1 X138.994 Y72.444 E.02311
G1 X139.378 Y73.071 E.02305
G1 X139.66 Y73.751 E.02308
G1 X139.82 Y74.418 E.02151
G1 X139.89 Y75.237 E.02577
G1 X139.89 Y144.789 E2.18075
G1 X139.831 Y145.533 E.0234
G1 X139.66 Y146.249 E.02308
G1 X139.378 Y146.929 E.02308
G1 X138.994 Y147.556 E.02305
G1 X138.515 Y148.116 E.02311
G1 X137.956 Y148.594 E.02306
G1 X137.329 Y148.978 E.02305
G1 X136.733 Y149.225 E.02023
;WIDTH:0.457596
G1 X136.619 Y149.237 E.00395
;WIDTH:0.495193
G1 X136.505 Y149.248 E.00431
;WIDTH:0.53279
G1 X136.392 Y149.26 E.00463
;WIDTH:0.570387
G1 X135.732 Y149.384 E.02945
;WIDTH:0.546421
G1 X134.952 Y149.433 E.03272
;WIDTH:0.53485
G1 X134.182 Y149.435 E.0315
;WIDTH:0.529069
G1 X133.96 Y149.454 E.00901
;WIDTH:0.492713
G1 X133.738 Y149.472 E.00833
;WIDTH:0.456356
G1 X133.516 Y149.49 E.00766
;WIDTH:0.419999
G1 X86.484 Y149.49 E1.47465
;WIDTH:0.469188
G1 X86.227 Y149.465 E.00915
;WIDTH:0.518377
G1 X85.971 Y149.441 E.01017
;WIDTH:0.567566
G1 X85.714 Y149.416 E.01126
G1 X84.804 Y149.429 E.0397
;WIDTH:0.560052
G1 X84.059 Y149.358 E.03218
G1 X83.795 Y149.313 E.01152
;WIDTH:0.513368
G1 X83.53 Y149.269 E.01051
;WIDTH:0.466684
G1 X83.265 Y149.224 E.00947
;WIDTH:0.419999
G1 X82.671 Y148.978 E.02016
G1 X82.044 Y148.594 E.02305
G1 X81.485 Y148.116 E.02306
G1 X81.006 Y147.556 E.02311
G1 X80.622 Y146.929 E.02305
G1 X80.34 Y146.249 E.02308
G1 X80.169 Y145.533 E.02308
G1 X80.11 Y144.789 E.0234
G1 X80.11 Y75.211 E2.18157
G1 X80.169 Y74.467 E.0234
G1 X80.34 Y73.751 E.02308
G1 X80.622 Y73.071 E.02308
G1 X81.006 Y72.444 E.02305
G1 X81.485 Y71.884 E.02311
G1 X82.044 Y71.406 E.02306
G1 X82.671 Y71.022 E.02305
G1 X83.212 Y70.798 E.01836
G1 X83.345 Y70.859 F9000
G1 E-3.5 F3600
;WIPE_START
G1 F7200
G1 X83.381 Y70.763 E-.08198
G1 X83.495 Y70.752 E-.0544
G1 X83.609 Y70.74 E-.05445
G1 X84.268 Y70.616 E-.31852
G1 X85.048 Y70.567 E-.37123
G1 X85.818 Y70.565 E-.36575
G1 X86.04 Y70.546 E-.10584
G1 X86.262 Y70.528 E-.1058
G1 X86.35 Y70.521 E-.04203
;WIPE_END
G1 X134.264 Y71.128 F9000
G1 E5 F2400
;WIDTH:0.545847
G1 F1200
G1 X134.976 Y71.058 E.02992
;WIDTH:0.546455
G1 X135.687 Y71.118 E.02987
;WIDTH:0.570381
G1 X136.138 Y71.237 E.02046
G1 X136.346 Y71.354 E.01047
;WIDTH:0.532786
G1 X136.554 Y71.471 E.00972
;WIDTH:0.49519
G1 X136.762 Y71.589 E.00899
;WIDTH:0.457595
G1 X136.971 Y71.706 E.00826
;WIDTH:0.419999
G1 X137.435 Y72.081 E.01871
G1 X137.991 Y72.724 E.02665
G1 X138.305 Y73.311 E.02087
G1 X138.512 Y73.983 E.02205
G1 X138.579 Y74.627 E.0203
G1 X138.512 Y75.417 E.02486
G1 X138.319 Y76.055 E.0209
G1 X137.991 Y76.676 E.02202
G1 X137.548 Y77.222 E.02205
G1 X137.007 Y77.67 E.02202
G1 X136.389 Y78.005 E.02204
G1 X135.717 Y78.212 E.02205
G1 X135.018 Y78.285 E.02204
G1 X134.319 Y78.219 E.02201
G1 X133.681 Y78.03 E.02086
G1 X133.229 Y77.8 E.0159
G1 X132.821 Y77.529 E.01536
G1 X132.44 Y77.207 E.01564
G1 X132.03 Y76.707 E.02027
G1 X131.695 Y76.089 E.02204
G1 X131.488 Y75.417 E.02205
G1 X131.415 Y74.718 E.02204
G1 X131.466 Y74.164 E.01744
G1 X131.593 Y73.637 E.017
G1 X131.695 Y73.311 E.01071
G1 X132.009 Y72.724 E.02087
G1 X132.452 Y72.178 E.02205
G1 X132.993 Y71.73 E.02202
G1 X133.611 Y71.395 E.02204
;WIDTH:0.461949
G1 X133.829 Y71.306 E.0082
