; generated by PrusaSlicer 2.6.0+win64 on 2024-07-01 at 09:12:00 UTC


;
;

;
;
; 

; external perimeters extrusion width = 0.45mm
; perimeters extrusion width = 0.45mm
; infill extrusion width = 0.45mm
; solid infill extrusion width = 0.45mm
; top infill extrusion width = 0.45mm
; support material extrusion width = 0.38mm
; first layer extrusion width = 0.42mm

;TYPE:Custom
M413 S0 ; disable Power Loss Recovery
G90 ; use absolute coordinates
M83 ; extruder relative mode
M104 S120 ; set temporary nozzle temp to prevent oozing during homing and auto bed leveling
M140 S70 ; set final bed temp
G4 S10 ; allow partial nozzle warmup
G28 ; home all axis
;G29 ; run abl mesh
M420 S1 ; load mesh
G1 Z50 F240
G1 X2 Y10 F3000
M104 S240 ; set final nozzle temp
M190 S70 ; wait for bed temp to stabilize
M109 S240 ; wait for nozzle temp to stabilize
G1 Z0.28 F240
G92 E0
G1 Y140 E10 F1500 ; prime the nozzle
G1 X2.3 F5000
G92 E0
G1 Y10 E10 F1200 ; prime the nozzle
G92 E0
G21 ; set units to millimeters
G90 ; use absolute coordinates
M83 ; use relative distances for extrusion
; Filament gcode
M107
;LAYER_CHANGE
;Z:0.2
;HEIGHT:0.2
;BEFORE_LAYER_CHANGE
G92 E0
;0.2


G1 E-5 F3600
G1 Z.2 F9000
;AFTER_LAYER_CHANGE
;0.2
G1 X64.477 Y75.096
G1 E5 F2400
;TYPE:Skirt/Brim
;WIDTH:0.42
G1 F1200
G1 X65.322 Y74.557 E.03143
G1 X82.263 Y68.273 E.56654
G1 X83.725 Y67.908 E.04725
G1 X84.8 Y67.823 E.03381
G1 X135.407 Y67.832 E1.58675
G1 X136.683 Y67.98 E.04028
G1 X137.726 Y68.269 E.03393
G1 X153.794 Y74.141 E.53639
G1 X155.413 Y74.999 E.05745
G1 X156.174 Y75.66 E.0316
G1 X157.055 Y76.84 E.04617
G1 X157.473 Y77.758 E.03163
G1 X157.817 Y79.38 E.05199
G1 X159.287 Y90.309 E.34576
G1 X159.349 Y135.064 E1.40326
G1 X159.287 Y140.34 E.16544
G1 X158.958 Y142.185 E.05876
G1 X158.563 Y143.098 E.03119
G1 X157.719 Y144.279 E.04551
G1 X156.987 Y144.948 E.03109
G1 X155.284 Y145.888 E.06099
G1 X137.661 Y151.754 E.58236
G1 X136.275 Y152.092 E.04473
G1 X135.2 Y152.177 E.03381
G1 X84.8 Y152.177 E1.58026
G1 X83.725 Y152.092 E.03381
G1 X82.256 Y151.725 E.04748
G1 X65.515 Y145.454 E.56052
G1 X64.677 Y144.917 E.03121
G1 X63.631 Y143.882 E.04614
G1 X63.081 Y143.037 E.03161
G1 X62.591 Y141.749 E.04321
G1 X62.437 Y140.98 E.02459
G1 X60.827 Y90.728 E1.57642
G1 X60.911 Y87.477 E.10197
G1 X62.319 Y78.502 E.28485
G1 X62.496 Y77.904 E.01955
G1 X62.988 Y76.797 E.03798
G1 X63.488 Y76.075 E.02754
G1 X64.434 Y75.138 E.04175
G1 E-3.5 F3600
;WIPE_START
G1 F7200
G1 X65.322 Y74.557 E-.50406
G1 X67.288 Y73.828 E-.99594
;WIPE_END
G1 X77.276 Y76.251 F9000
G1 E5 F2400
;TYPE:Support material
G1 F1200
G1 X78.162 Y76.366 E.02801
G1 X79.32 Y77.045 E.04209
G1 X79.32 Y79.905 E.08967
G1 X77.601 Y79.905 E.0539
G1 X77.32 Y80.186 E.01246
G1 X77.32 Y80.773 E.0184
G1 X66.28 Y80.773 E.34615
G1 X66.28 Y80.186 E.0184
G1 X65.999 Y79.905 E.01246
G1 X65.181 Y79.905 E.02565
G1 X64.97 Y80.017 E.00749
G1 X64.677 Y80.489 E.01742
G1 X64.58 Y80.233 E.00858
G1 X64.667 Y78.871 E.04279
G1 X65.16 Y77.764 E.038
G1 X66.149 Y76.786 E.04361
G1 X67.53 Y76.277 E.04615
G1 X68.998 Y76.387 E.04616
G1 X69.515 Y76.671 E.01849
G1 X70.583 Y76.277 E.03569
G1 X72.052 Y76.387 E.04619
G1 X72.568 Y76.671 E.01847
G1 X73.637 Y76.277 E.03572
G1 X75.105 Y76.387 E.04616
G1 X75.47 Y76.588 E.01306
G1 X76.597 Y76.222 E.03715
G1 X77.22 Y76.249 E.01955
G1 X78.577 Y79.735 F9000
G1 F1200
G1 X78.577 Y77.003 E.08566
G1 X78.158 Y76.757 E.01523
G1 X78.158 Y79.565 E.08804
G1 X77.739 Y79.565 E.01314
G1 X77.739 Y76.653 E.0913
G1 X77.32 Y76.599 E.01325
G1 X77.32 Y79.706 E.09742
G1 X76.981 Y80.045 E.01503
G1 X76.981 Y80.434 E.0122
G1 X76.901 Y80.434 E.00251
G1 X76.901 Y76.575 E.121
G1 X76.644 Y76.564 E.00807
G1 X76.482 Y76.616 E.00533
G1 X76.482 Y80.434 E.11971
G1 X76.063 Y80.434 E.01314
G1 X76.063 Y76.752 E.11545
G1 X75.644 Y76.888 E.01381
G1 X75.644 Y80.434 E.11118
G1 X75.225 Y80.434 E.01314
G1 X75.225 Y76.84 E.11269
G1 X75.006 Y76.72 E.00783
G1 X74.806 Y76.705 E.00629
G1 X74.806 Y80.434 E.11692
G1 X74.387 Y80.434 E.01314
G1 X74.387 Y76.674 E.11789
G1 X73.968 Y76.642 E.01318
G1 X73.968 Y80.434 E.1189
G1 X73.549 Y80.434 E.01314
G1 X73.549 Y76.671 E.11799
G1 X73.13 Y76.825 E.014
G1 X73.13 Y80.434 E.11316
G1 X72.711 Y80.434 E.01314
G1 X72.711 Y76.98 E.1083
G1 X72.54 Y77.043 E.00571
G1 X72.292 Y76.906 E.00888
G1 X72.292 Y80.434 E.11062
G1 X71.873 Y80.434 E.01314
G1 X71.873 Y76.714 E.11664
G1 X71.454 Y76.683 E.01317
G1 X71.454 Y80.434 E.11761
G1 X71.035 Y80.434 E.01314
G1 X71.035 Y76.651 E.11861
G1 X70.616 Y76.627 E.01316
G1 X70.616 Y80.434 E.11937
G1 X70.197 Y80.434 E.01314
G1 X70.197 Y76.781 E.11454
G1 X69.778 Y76.935 E.014
G1 X69.778 Y80.434 E.10971
G1 X69.359 Y80.434 E.01314
G1 X69.359 Y76.973 E.10852
G1 X68.94 Y76.742 E.015
G1 X68.94 Y80.434 E.11576
G1 X68.521 Y80.434 E.01314
G1 X68.521 Y76.692 E.11733
G1 X68.102 Y76.66 E.01318
G1 X68.102 Y80.434 E.11833
G1 X67.683 Y80.434 E.01314
G1 X67.683 Y76.629 E.1193
G1 X67.578 Y76.621 E.0033
G1 X67.264 Y76.737 E.0105
G1 X67.264 Y80.434 E.11592
G1 X66.845 Y80.434 E.01314
G1 X66.845 Y76.891 E.11109
G1 X66.426 Y77.045 E.014
G1 X66.426 Y79.852 E.08801
G1 X66.139 Y79.565 E.01273
G1 X66.007 Y79.565 E.00414
G1 X66.007 Y77.403 E.06779
G1 X65.588 Y77.818 E.01849
G1 X65.588 Y79.565 E.05478
G1 X65.169 Y79.565 E.01314
G1 X65.169 Y78.16 E.04405
G1 E-3.5 F3600
;WIPE_START
G1 F7200
G1 X65.169 Y79.565 E-.66738
G1 X65.588 Y79.565 E-.19903
G1 X65.588 Y78.231 E-.63359
;WIPE_END
G1 X64.32 Y88.809 F9000
G1 E5 F2400
G1 F1200
G1 X64.351 Y88.928 E.00386
G1 X64.813 Y89.752 E.02962
G1 X64.97 Y89.983 E.00876
G1 X65.181 Y90.095 E.00749
G1 X65.999 Y90.095 E.02565
G1 X66.28 Y89.814 E.01246
G1 X66.28 Y89.227 E.0184
G1 X77.32 Y89.227 E.34615
G1 X77.32 Y89.814 E.0184
G1 X77.601 Y90.095 E.01246
G1 X79.32 Y90.095 E.0539
G1 X79.32 Y92.936 E.08908
G1 X78.134 Y93.632 E.04312
G1 X76.688 Y93.792 E.04562
G1 X75.501 Y93.409 E.03911
G1 X75.105 Y93.626 E.01416
G1 X73.637 Y93.736 E.04616
G1 X72.568 Y93.343 E.03571
G1 X72.052 Y93.626 E.01845
G1 X70.583 Y93.736 E.04619
G1 X69.515 Y93.343 E.03568
G1 X68.998 Y93.626 E.01848
G1 X67.53 Y93.736 E.04616
G1 X66.359 Y93.305 E.03912
G1 X65.719 Y93.211 E.02028
G1 X64.97 Y92.985 E.02453
G1 X63.814 Y92.07 E.04623
G1 X63.203 Y90.651 E.04844
G1 X63.26 Y87.845 E.088
G1 X64.32 Y87.845 E.03324
G1 X64.32 Y88.752 E.02844
G1 E-3.5 F3600
;WIPE_START
G1 F7200
G1 X64.32 Y87.845 E-.43082
G1 X63.26 Y87.845 E-.5035
G1 X63.236 Y89.036 E-.56568
;WIPE_END
G1 X78.577 Y93.175 F9000
G1 E5 F2400
G1 F1200
G1 X78.577 Y90.435 E.08591
G1 X78.158 Y90.435 E.01314
G1 X78.158 Y93.225 E.08748
G1 X78.024 Y93.303 E.00486
G1 X77.739 Y93.334 E.00899
G1 X77.739 Y90.435 E.0909
G1 X77.461 Y90.435 E.00872
G1 X77.32 Y90.294 E.00625
G1 X77.32 Y93.381 E.09679
G1 X76.901 Y93.427 E.01322
G1 X76.901 Y89.567 E.12103
G1 X76.482 Y89.567 E.01314
G1 X76.482 Y93.369 E.11921
G1 X76.063 Y93.234 E.0138
G1 X76.063 Y89.567 E.11498
G1 X75.644 Y89.567 E.01314
G1 X75.644 Y93.099 E.11074
G1 X75.466 Y93.041 E.00587
G1 X75.225 Y93.173 E.00862
G1 X75.225 Y89.567 E.11306
G1 X74.806 Y89.567 E.01314
G1 X74.806 Y93.309 E.11733
G1 X74.387 Y93.34 E.01317
G1 X74.387 Y89.567 E.1183
G1 X73.968 Y89.567 E.01314
G1 X73.968 Y93.371 E.11927
G1 X73.685 Y93.392 E.0089
G1 X73.549 Y93.342 E.00454
G1 X73.549 Y89.567 E.11836
G1 X73.13 Y89.567 E.01314
G1 X73.13 Y93.188 E.11353
G1 X72.711 Y93.034 E.014
G1 X72.711 Y89.567 E.10871
G1 X72.292 Y89.567 E.01314
G1 X72.292 Y93.107 E.11099
G1 X71.953 Y93.294 E.01214
G1 X71.873 Y93.299 E.00251
G1 X71.873 Y89.567 E.11701
G1 X71.454 Y89.567 E.01314
G1 X71.454 Y93.331 E.11802
G1 X71.035 Y93.362 E.01317
G1 X71.035 Y89.567 E.11899
G1 X70.616 Y89.567 E.01314
G1 X70.616 Y93.387 E.11977
G1 X70.197 Y93.233 E.014
G1 X70.197 Y89.567 E.11494
G1 X69.778 Y89.567 E.01314
G1 X69.778 Y93.078 E.11008
G1 X69.487 Y92.971 E.00972
G1 X69.359 Y93.041 E.00457
G1 X69.359 Y89.567 E.10892
G1 X68.94 Y89.567 E.01314
G1 X68.94 Y93.271 E.11614
G1 X68.899 Y93.294 E.00147
G1 X68.521 Y93.322 E.01188
G1 X68.521 Y89.567 E.11774
G1 X68.102 Y89.567 E.01314
G1 X68.102 Y93.353 E.11871
G1 X67.683 Y93.385 E.01318
G1 X67.683 Y89.567 E.11971
G1 X67.264 Y89.567 E.01314
G1 X67.264 Y93.277 E.11632
G1 X66.845 Y93.123 E.014
G1 X66.845 Y89.567 E.1115
G1 X66.619 Y89.567 E.00709
G1 X66.619 Y89.955 E.01217
G1 X66.426 Y90.148 E.00856
G1 X66.426 Y92.972 E.08854
G1 X66.007 Y92.91 E.01328
G1 X66.007 Y90.435 E.0776
G1 X65.588 Y90.435 E.01314
G1 X65.588 Y92.817 E.07469
G1 X65.169 Y92.691 E.01372
G1 X65.169 Y90.435 E.07074
G1 X65.096 Y90.435 E.00229
G1 X64.75 Y90.251 E.01229
G1 X64.75 Y92.378 E.06669
G1 X64.332 Y92.046 E.01674
G1 X64.332 Y89.588 E.07707
G1 X64.034 Y89.055 E.01915
G1 X63.981 Y88.852 E.00658
G1 X63.981 Y88.185 E.02091
G1 X63.913 Y88.185 E.00213
G1 X63.913 Y91.869 E.11551
G1 E-3.5 F3600
;WIPE_START
G1 F7200
G1 X63.913 Y88.711 E-1.5
;WIPE_END
G1 X79.32 Y87.02 F9000
G1 E5 F2400
G1 F1200
G1 X65.101 Y87.02 E.44583
G1 X64.782 Y86.322 E.02406
G1 X64.61 Y85.13 E.03776
G1 X64.781 Y83.938 E.03776
G1 X65.218 Y82.98 E.03301
G1 X79.32 Y82.98 E.44216
G1 X79.32 Y86.963 E.12488
G1 X78.577 Y86.85 F9000
G1 F1200
G1 X78.577 Y83.319 E.11071
G1 X78.158 Y83.319 E.01314
G1 X78.158 Y86.681 E.10541
G1 X77.739 Y86.681 E.01314
G1 X77.739 Y83.319 E.10541
G1 X77.32 Y83.319 E.01314
G1 X77.32 Y86.681 E.10541
G1 X76.901 Y86.681 E.01314
G1 X76.901 Y83.319 E.10541
G1 X76.482 Y83.319 E.01314
G1 X76.482 Y86.681 E.10541
G1 X76.063 Y86.681 E.01314
G1 X76.063 Y83.319 E.10541
G1 X75.644 Y83.319 E.01314
G1 X75.644 Y86.681 E.10541
G1 X75.225 Y86.681 E.01314
G1 X75.225 Y83.319 E.10541
G1 X74.806 Y83.319 E.01314
G1 X74.806 Y86.681 E.10541
G1 X74.387 Y86.681 E.01314
G1 X74.387 Y83.319 E.10541
G1 X73.968 Y83.319 E.01314
G1 X73.968 Y86.681 E.10541
G1 X73.549 Y86.681 E.01314
G1 X73.549 Y83.319 E.10541
G1 X73.13 Y83.319 E.01314
G1 X73.13 Y86.681 E.10541
G1 X72.711 Y86.681 E.01314
G1 X72.711 Y83.319 E.10541
G1 X72.292 Y83.319 E.01314
G1 X72.292 Y86.681 E.10541
G1 X71.873 Y86.681 E.01314
G1 X71.873 Y83.319 E.10541
G1 X71.454 Y83.319 E.01314
G1 X71.454 Y86.681 E.10541
G1 X71.035 Y86.681 E.01314
G1 X71.035 Y83.319 E.10541
G1 X70.616 Y83.319 E.01314
G1 X70.616 Y86.681 E.10541
G1 X70.197 Y86.681 E.01314
G1 X70.197 Y83.319 E.10541
G1 X69.778 Y83.319 E.01314
G1 X69.778 Y86.681 E.10541
G1 X69.359 Y86.681 E.01314
G1 X69.359 Y83.319 E.10541
G1 X68.94 Y83.319 E.01314
G1 X68.94 Y86.681 E.10541
G1 X68.521 Y86.681 E.01314
G1 X68.521 Y83.319 E.10541
G1 X68.102 Y83.319 E.01314
G1 X68.102 Y86.681 E.10541
G1 X67.683 Y86.681 E.01314
G1 X67.683 Y83.319 E.10541
G1 X67.264 Y83.319 E.01314
G1 X67.264 Y86.681 E.10541
G1 X66.845 Y86.681 E.01314
G1 X66.845 Y83.319 E.10541
G1 X66.426 Y83.319 E.01314
G1 X66.426 Y86.681 E.10541
G1 X66.007 Y86.681 E.01314
G1 X66.007 Y83.319 E.10541
G1 X65.588 Y83.319 E.01314
G1 X65.588 Y86.681 E.10541
G1 X65.319 Y86.681 E.00843
G1 X65.169 Y86.354 E.01128
G1 X65.169 Y83.495 E.08964
G1 E-3.5 F3600
;WIPE_START
G1 F7200
G1 X65.169 Y86.354 E-1.35802
G1 X65.294 Y86.626 E-.14198
;WIPE_END
G1 X90.019 Y80.718 F9000
G1 E5 F2400
G1 F1200
G1 X90.713 Y81.647 E.03636
G1 X91.225 Y82.686 E.03632
G1 X91.538 Y83.8 E.03628
G1 X91.644 Y84.95 E.03621
G1 X91.537 Y86.107 E.03643
G1 X91.223 Y87.218 E.0362
G1 X90.711 Y88.256 E.03629
G1 X90.017 Y89.185 E.03636
G1 X89.437 Y89.72 E.02474
G1 X81.88 Y89.72 E.23694
G1 X81.88 Y80.28 E.29598
G1 X89.545 Y80.28 E.24033
G1 X89.978 Y80.68 E.01848
G1 X91.146 Y86.866 F9000
G1 F1200
G1 X91.146 Y83.659 E.10055
G1 X90.906 Y82.808 E.02772
G1 X90.727 Y82.444 E.01272
G1 X90.727 Y87.456 E.15715
G1 X90.42 Y88.078 E.02175
G1 X90.308 Y88.228 E.00587
G1 X90.308 Y81.673 E.20553
G1 X89.889 Y81.111 E.02198
G1 X89.889 Y88.788 E.24071
G1 X89.763 Y88.957 E.00661
G1 X89.47 Y89.227 E.01249
G1 X89.47 Y80.673 E.2682
G1 X89.412 Y80.619 E.00248
G1 X89.051 Y80.619 E.01132
G1 X89.051 Y89.381 E.27473
G1 X88.632 Y89.381 E.01314
G1 X88.632 Y80.619 E.27473
G1 X88.213 Y80.619 E.01314
G1 X88.213 Y89.381 E.27473
G1 X87.794 Y89.381 E.01314
G1 X87.794 Y80.619 E.27473
G1 X87.375 Y80.619 E.01314
G1 X87.375 Y89.381 E.27473
G1 X86.956 Y89.381 E.01314
G1 X86.956 Y80.619 E.27473
G1 X86.537 Y80.619 E.01314
G1 X86.537 Y89.381 E.27473
G1 X86.118 Y89.381 E.01314
G1 X86.118 Y80.619 E.27473
G1 X85.699 Y80.619 E.01314
G1 X85.699 Y89.381 E.27473
G1 X85.28 Y89.381 E.01314
G1 X85.28 Y80.619 E.27473
G1 X84.861 Y80.619 E.01314
G1 X84.861 Y89.381 E.27473
G1 X84.442 Y89.381 E.01314
G1 X84.442 Y80.619 E.27473
G1 X84.023 Y80.619 E.01314
G1 X84.023 Y89.381 E.27473
G1 X83.604 Y89.381 E.01314
G1 X83.604 Y80.619 E.27473
G1 X83.185 Y80.619 E.01314
G1 X83.185 Y89.381 E.27473
G1 X82.766 Y89.381 E.01314
G1 X82.766 Y80.619 E.27473
G1 X82.348 Y80.619 E.01311
G1 X82.348 Y89.55 E.28003
G1 E-3.5 F3600
;WIPE_START
G1 F7200
G1 X82.348 Y86.392 E-1.5
;WIPE_END
G1 X77.276 Y126.251 F9000
G1 E5 F2400
G1 F1200
G1 X78.162 Y126.366 E.02801
G1 X79.32 Y127.045 E.04209
G1 X79.32 Y129.905 E.08967
G1 X77.601 Y129.905 E.0539
G1 X77.32 Y130.186 E.01246
G1 X77.32 Y130.773 E.0184
G1 X66.28 Y130.773 E.34615
G1 X66.28 Y130.186 E.0184
G1 X65.999 Y129.905 E.01246
G1 X65.181 Y129.905 E.02565
G1 X64.97 Y130.017 E.00749
G1 X64.775 Y130.315 E.01117
G1 X64.867 Y128.871 E.04537
G1 X65.36 Y127.764 E.038
G1 X66.349 Y126.786 E.04361
G1 X67.73 Y126.277 E.04615
G1 X69.198 Y126.387 E.04616
G1 X69.675 Y126.649 E.01706
G1 X70.683 Y126.277 E.03369
G1 X72.152 Y126.387 E.04619
G1 X72.628 Y126.649 E.01704
G1 X73.637 Y126.277 E.03372
G1 X75.105 Y126.387 E.04616
G1 X75.47 Y126.588 E.01306
G1 X76.597 Y126.222 E.03715
G1 X77.22 Y126.249 E.01955
G1 X78.577 Y129.735 F9000
G1 F1200
G1 X78.577 Y127.003 E.08566
G1 X78.158 Y126.757 E.01523
G1 X78.158 Y129.566 E.08807
G1 X77.739 Y129.566 E.01314
G1 X77.739 Y126.653 E.09134
G1 X77.32 Y126.599 E.01325
G1 X77.32 Y129.706 E.09742
G1 X76.981 Y130.045 E.01503
G1 X76.981 Y130.434 E.0122
G1 X76.901 Y130.434 E.00251
G1 X76.901 Y126.575 E.121
G1 X76.644 Y126.564 E.00807
G1 X76.482 Y126.616 E.00533
G1 X76.482 Y130.434 E.11971
G1 X76.063 Y130.434 E.01314
G1 X76.063 Y126.752 E.11545
G1 X75.644 Y126.888 E.01381
G1 X75.644 Y130.434 E.11118
G1 X75.225 Y130.434 E.01314
G1 X75.225 Y126.84 E.11269
G1 X75.006 Y126.72 E.00783
G1 X74.806 Y126.705 E.00629
G1 X74.806 Y130.434 E.11692
G1 X74.387 Y130.434 E.01314
G1 X74.387 Y126.674 E.11789
G1 X73.968 Y126.642 E.01318
G1 X73.968 Y130.434 E.1189
G1 X73.549 Y130.434 E.01314
G1 X73.549 Y126.671 E.11799
G1 X73.13 Y126.825 E.014
G1 X73.13 Y130.434 E.11316
G1 X72.711 Y130.434 E.01314
G1 X72.711 Y126.98 E.1083
G1 X72.6 Y127.021 E.00371
G1 X72.292 Y126.851 E.01103
G1 X72.292 Y130.434 E.11234
G1 X71.873 Y130.434 E.01314
G1 X71.873 Y126.707 E.11686
G1 X71.454 Y126.675 E.01318
G1 X71.454 Y130.434 E.11786
G1 X71.035 Y130.434 E.01314
G1 X71.035 Y126.644 E.11883
G1 X70.732 Y126.621 E.00953
G1 X70.616 Y126.664 E.00388
G1 X70.616 Y130.434 E.11821
G1 X70.197 Y130.434 E.01314
G1 X70.197 Y126.818 E.11338
G1 X69.778 Y126.972 E.014
G1 X69.778 Y130.434 E.10855
G1 X69.359 Y130.434 E.01314
G1 X69.359 Y126.863 E.11197
G1 X69.099 Y126.72 E.0093
G1 X68.94 Y126.708 E.005
G1 X68.94 Y130.434 E.11683
G1 X68.521 Y130.434 E.01314
G1 X68.521 Y126.677 E.1178
G1 X68.102 Y126.645 E.01318
G1 X68.102 Y130.434 E.1188
G1 X67.683 Y130.434 E.01314
G1 X67.683 Y126.656 E.11846
G1 X67.264 Y126.81 E.014
G1 X67.264 Y130.434 E.11363
G1 X66.845 Y130.434 E.01314
G1 X66.845 Y126.965 E.10877
G1 X66.535 Y127.079 E.01036
G1 X66.426 Y127.186 E.00479
G1 X66.426 Y129.853 E.08362
G1 X66.139 Y129.566 E.01273
G1 X66.007 Y129.566 E.00414
G1 X66.007 Y127.601 E.06161
G1 X65.644 Y127.96 E.01601
G1 X65.588 Y128.086 E.00432
G1 X65.588 Y129.566 E.0464
G1 X65.169 Y129.566 E.01314
G1 X65.169 Y128.609 E.03001
G1 E-3.5 F3600
;WIPE_START
G1 F7200
G1 X65.169 Y129.566 E-.45457
G1 X65.588 Y129.566 E-.19903
G1 X65.588 Y128.086 E-.703
G1 X65.644 Y127.96 E-.06549
G1 X65.761 Y127.845 E-.07791
;WIPE_END
G1 X79.32 Y137.02 F9000
G1 E5 F2400
G1 F1200
G1 X65.22 Y137.02 E.4421
G1 X64.824 Y136.153 E.02989
G1 X64.653 Y134.961 E.03776
G1 X64.824 Y133.769 E.03776
G1 X65.184 Y132.98 E.02719
G1 X79.32 Y132.98 E.44322
G1 X79.32 Y136.963 E.12488
G1 X78.577 Y136.85 F9000
G1 F1200
G1 X78.577 Y133.319 E.11071
G1 X78.158 Y133.319 E.01314
