; generated by PrusaSlicer 2.6.0+win64 on 2024-07-01 at 11:29:52 UTC


;
;

;
;
; 

; external perimeters extrusion width = 0.45mm
; perimeters extrusion width = 0.45mm
; infill extrusion width = 0.45mm
; solid infill extrusion width = 0.45mm
; top infill extrusion width = 0.45mm
; first layer extrusion width = 0.42mm

; external perimeters extrusion width = 0.45mm
; perimeters extrusion width = 0.45mm
; infill extrusion width = 0.45mm
; solid infill extrusion width = 0.45mm
; top infill extrusion width = 0.45mm
; first layer extrusion width = 0.42mm

; external perimeters extrusion width = 0.45mm
; perimeters extrusion width = 0.45mm
; infill extrusion width = 0.45mm
; solid infill extrusion width = 0.45mm
; top infill extrusion width = 0.45mm
; first layer extrusion width = 0.42mm

;TYPE:Custom
M413 S0 ; disable Power Loss Recovery
G90 ; use absolute coordinates
M83 ; extruder relative mode
M104 S120 ; set temporary nozzle temp to prevent oozing during homing and auto bed leveling
M140 S70 ; set final bed temp
G4 S10 ; allow partial nozzle warmup
G28 ; home all axis
;G29 ; run abl mesh
M420 S1 ; load mesh
G1 Z50 F240
G1 X2 Y10 F3000
M104 S240 ; set final nozzle temp
M190 S70 ; wait for bed temp to stabilize
M109 S240 ; wait for nozzle temp to stabilize
G1 Z0.28 F240
G92 E0
G1 Y140 E10 F1500 ; prime the nozzle
G1 X2.3 F5000
G92 E0
G1 Y10 E10 F1200 ; prime the nozzle
G92 E0
G21 ; set units to millimeters
G90 ; use absolute coordinates
M83 ; use relative distances for extrusion
; Filament gcode
M107
;LAYER_CHANGE
;Z:0.2
;HEIGHT:0.2
;BEFORE_LAYER_CHANGE
G92 E0
;0.2


G1 E-5 F3600
G1 Z.2 F9000
;AFTER_LAYER_CHANGE
;0.2
G1 X95.858 Y94.552
G1 E5 F2400
;TYPE:Skirt/Brim
;WIDTH:0.42
G1 F1200
G1 X96.546 Y93.945 E.02877
G1 X97.557 Y93.174 E.03987
G1 X99.68 Y91.853 E.0784
G1 X101.802 Y90.801 E.07426
G1 X103.962 Y89.946 E.07284
G1 X106.09 Y89.441 E.06858
G1 X108.501 Y89.177 E.07605
G1 X109.801 Y89.124 E.04079
G1 X111.061 Y89.15 E.03951
G1 X157.354 Y92.076 E1.45438
G1 X158.885 Y92.767 E.05267
G1 X167.906 Y101.789 E.40003
G1 X168.603 Y103.469 E.05703
G1 X168.603 Y116.227 E.40002
G1 X167.906 Y117.908 E.05706
G1 X158.885 Y126.929 E.40001
G1 X157.37 Y127.62 E.05221
G1 X110.319 Y130.874 E1.47877
G1 X106.739 Y130.688 E.1124
G1 X105.836 Y130.529 E.02875
G1 X104.779 Y130.272 E.03411
G1 X103.468 Y129.829 E.04339
G1 X101.084 Y128.876 E.0805
G1 X98.086 Y127.225 E.10731
G1 X96.364 Y125.875 E.06861
G1 X94.655 Y124.156 E.076
G1 X93.803 Y123.171 E.04083
G1 X91.792 Y120.349 E.10865
G1 X91.353 Y119.544 E.02875
G1 X90.827 Y118.387 E.03985
G1 X90.012 Y116.023 E.0784
G1 X89.458 Y113.72 E.07427
G1 X89.105 Y111.425 E.0728
G1 X89.087 Y109.237 E.06861
G1 X89.354 Y106.908 E.0735
G1 X89.599 Y105.566 E.04277
G1 X90.556 Y102.217 E.10921
G1 X91.489 Y100.239 E.06857
G1 X92.785 Y98.189 E.07604
G1 X93.555 Y97.139 E.04083
G1 X95.819 Y94.597 E.10673
G1 E-3.5 F3600
;WIPE_START
G1 F7200
G1 X96.546 Y93.945 E-.46386
G1 X97.557 Y93.174 E-.60393
G1 X98.33 Y92.693 E-.43221
;WIPE_END
G1 X136.113 Y103.754 F9000
G1 E5 F2400
;TYPE:Perimeter
;WIDTH:0.419999
G1 F1200
G1 X144.731 Y95.135 E.38216
G1 X156.92 Y95.135 E.38218
G1 X165.539 Y103.754 E.38218
G1 X165.539 Y115.943 E.38218
G1 X156.92 Y124.561 E.38216
G1 X144.731 Y124.561 E.38218
G1 X136.113 Y115.943 E.38214
G1 X136.113 Y103.814 E.3803
G1 X135.736 Y103.598 F9000
;TYPE:External perimeter
G1 F1200
G1 X144.575 Y94.758 E.39196
G1 X157.076 Y94.758 E.39196
G1 X165.916 Y103.598 E.39198
G1 X165.916 Y116.099 E.39196
G1 X157.076 Y124.938 E.39196
G1 X144.575 Y124.938 E.39196
G1 X135.736 Y116.099 E.39194
G1 X135.736 Y103.658 E.39008
G1 X136.132 Y103.546 F9000
G1 E-3.5 F3600
;WIPE_START
G1 F7200
G1 X137.961 Y101.417 E-1.5
;WIPE_END
G1 X152.11 Y101.171 F9000
G1 E5 F2400
;TYPE:Perimeter
G1 F1200
G1 X151.852 Y101.005 E.00962
G1 X151.761 Y100.587 E.01341
G1 X152.324 Y97.394 E.10166
G1 X152.416 Y97.17 E.00759
G1 X152.654 Y96.974 E.00967
G1 X152.881 Y96.926 E.00727
G1 X153.972 Y97.145 E.03489
G1 X154.851 Y97.396 E.02866
G1 X155.71 Y97.707 E.02864
G1 X156.545 Y98.077 E.02864
G1 X157.352 Y98.505 E.02864
G1 X158.127 Y98.988 E.02863
G1 X158.867 Y99.524 E.02865
G1 X159.568 Y100.11 E.02865
G1 X160.226 Y100.743 E.02863
G1 X160.919 Y101.511 E.03243
G1 X161.051 Y101.769 E.00909
G1 X161.049 Y102.021 E.0079
G1 X160.968 Y102.207 E.00636
G1 X160.455 Y102.665 E.02156
G1 X158.379 Y104.408 E.08499
G1 X158.25 Y104.489 E.00478
G1 X157.787 Y104.489 E.01452
;WIDTH:0.414362
G1 X157.603 Y104.348 E.00716
;WIDTH:0.401997
G1 X157.058 Y103.745 E.02427
;WIDTH:0.398422
G1 X156.567 Y103.28 E.01999
;WIDTH:0.397609
G1 X156.146 Y102.937 E.01602
;WIDTH:0.394459
G1 X155.484 Y102.471 E.02366
;WIDTH:0.396745
G1 X154.724 Y102.047 E.0256
;WIDTH:0.391596
G1 X154.029 Y101.737 E.02206
;WIDTH:0.391325
G1 X153.264 Y101.476 E.02342
;WIDTH:0.392307
G1 X152.478 Y101.284 E.02351
;WIDTH:0.401163
G1 X152.2 Y101.229 E.00844
;WIDTH:0.419999
G1 X152.16 Y101.203 E.0015
G1 X152.278 Y100.869 F9000
;TYPE:External perimeter
G1 F1200
G1 X152.163 Y100.792 E.00434
G1 X152.132 Y100.652 E.0045
G1 X152.695 Y97.459 E.10166
G1 X152.805 Y97.319 E.00558
G1 X152.92 Y97.307 E.00363
G1 X153.894 Y97.514 E.03122
G1 X154.747 Y97.758 E.02782
G1 X155.581 Y98.061 E.02782
G1 X156.391 Y98.422 E.02781
G1 X157.175 Y98.838 E.02783
G1 X157.928 Y99.308 E.02783
G1 X158.645 Y99.829 E.02779
G1 X159.325 Y100.399 E.02782
G1 X159.964 Y101.014 E.02781
G1 X160.639 Y101.764 E.03164
G1 X160.682 Y101.934 E.0055
G1 X160.62 Y102.034 E.00369
G1 X158.136 Y104.119 E.10168
G1 X157.955 Y104.153 E.00577
G1 X157.011 Y103.196 E.04215
G1 X156.374 Y102.654 E.02622
G1 X155.69 Y102.171 E.02625
G1 X154.881 Y101.719 E.02906
G1 X154.426 Y101.502 E.01581
G1 X153.768 Y101.248 E.02211
G1 X153.093 Y101.046 E.02209
G1 X152.337 Y100.882 E.02426
G1 X152.161 Y100.944 F9000
G1 E-3.5 F3600
;WIPE_START
G1 F7200
G1 X152.163 Y100.792 E-.09305
G1 X152.132 Y100.652 E-.06811
G1 X152.621 Y97.876 E-1.33884
;WIPE_END
G1 X159.726 Y109.333 F9000
G1 E5 F2400
;TYPE:Perimeter
G1 F1200
G1 X160.043 Y109.165 E.01125
G1 X163.351 Y109.161 E.10372
G1 X163.513 Y109.185 E.00513
G1 X163.697 Y109.279 E.00648
G1 X163.857 Y109.473 E.00788
G1 X163.917 Y109.747 E.00879
G1 X163.882 Y110.741 E.03119
G1 X163.788 Y111.65 E.02865
G1 X163.631 Y112.55 E.02864
G1 X163.411 Y113.437 E.02865
G1 X163.13 Y114.306 E.02864
G1 X162.906 Y114.865 E.01888
G1 X162.39 Y115.975 E.03838
G1 X161.934 Y116.767 E.02865
G1 X161.425 Y117.525 E.02863
G1 X160.789 Y118.341 E.03244
G1 X160.493 Y118.538 E.01115
G1 X160.186 Y118.536 E.00963
G1 X159.979 Y118.426 E.00735
G1 X157.495 Y116.342 E.10166
G1 X157.345 Y116.146 E.00774
G1 X157.303 Y115.814 E.01049
;WIDTH:0.417002
G1 X157.418 Y115.567 E.00847
;WIDTH:0.404778
G1 X157.792 Y115.095 E.01812
;WIDTH:0.393544
G1 X158.256 Y114.419 E.0239
;WIDTH:0.396042
G1 X158.619 Y113.77 E.02183
;WIDTH:0.397902
G1 X158.898 Y113.154 E.01996
;WIDTH:0.398736
G1 X159.13 Y112.518 E.02003
G1 X159.312 Y111.867 E.02
;WIDTH:0.398547
G1 X159.42 Y111.333 E.01611
;WIDTH:0.393927
G1 X159.516 Y110.598 E.02163
;WIDTH:0.396583
G1 X159.552 Y109.79 E.02378
;WIDTH:0.419999
G1 X159.678 Y109.366 E.01387
G1 X159.917 Y109.804 F9000
;TYPE:External perimeter
G1 F1200
G1 X159.977 Y109.592 E.00691
G1 X160.109 Y109.538 E.00447
G1 X163.351 Y109.538 E.10165
G1 X163.467 Y109.578 E.00385
G1 X163.54 Y109.733 E.00537
G1 X163.505 Y110.728 E.03122
G1 X163.413 Y111.611 E.02784
G1 X163.259 Y112.484 E.02779
G1 X163.045 Y113.345 E.02782
G1 X162.771 Y114.189 E.02782
G1 X162.556 Y114.724 E.01808
G1 X162.051 Y115.809 E.03752
G1 X161.608 Y116.578 E.02783
G1 X161.112 Y117.314 E.02783
G1 X160.491 Y118.109 E.03163
G1 X160.393 Y118.175 E.0037
G1 X160.222 Y118.137 E.00549
G1 X157.738 Y116.053 E.10166
G1 X157.688 Y115.987 E.0026
G1 X157.673 Y115.877 E.00348
G1 X158.56 Y114.619 E.04826
G1 X158.938 Y113.946 E.0242
G1 X159.232 Y113.305 E.02211
G1 X159.474 Y112.643 E.0221
G1 X159.665 Y111.965 E.02209
G1 X159.764 Y111.469 E.01586
G1 X159.878 Y110.64 E.02624
G1 X159.914 Y109.864 E.02436
G1 X159.754 Y109.656 F9000
G1 E-3.5 F3600
;WIPE_START
G1 F7200
G1 X159.977 Y109.592 E-.13262
G1 X160.109 Y109.538 E-.06774
G1 X162.845 Y109.538 E-1.29964
;WIPE_END
G1 X158.962 Y111.797 F9000
G1 E5 F2400
;TYPE:Perimeter
;WIDTH:0.398736
G1 F1200
G1 X158.793 Y112.402 E.01858
G1 X158.574 Y113.01 E.01912
;WIDTH:0.397902
G1 X158.362 Y113.495 E.01562
;WIDTH:0.39471
G1 X157.991 Y114.181 E.02281
;WIDTH:0.396969
G1 X157.632 Y114.719 E.01904
;WIDTH:0.404778
G1 X157.137 Y115.339 E.02387
;WIDTH:0.419999
G1 X156.526 Y115.999 E.0282
G1 X156.121 Y116.342 E.01664
G1 X155.292 Y116.946 E.03216
G1 X154.613 Y117.331 E.02447
G1 X153.946 Y117.63 E.02292
G1 X153.162 Y117.903 E.02603
G1 X152.404 Y118.085 E.02444
G1 X151.631 Y118.196 E.02449
G1 X150.852 Y118.235 E.02446
G1 X150.072 Y118.201 E.02448
G1 X149.299 Y118.095 E.02446
G1 X148.539 Y117.917 E.02447
G1 X148.046 Y117.753 E.01629
G1 X147.086 Y117.353 E.03261
;WIDTH:0.416785
G1 X146.411 Y116.962 E.02425
;WIDTH:0.391419
G1 X145.769 Y116.521 E.02257
;WIDTH:0.392485
G1 X145.17 Y116.022 E.02266
;WIDTH:0.394586
G1 X144.62 Y115.47 E.02279
;WIDTH:0.396942
G1 X144.207 Y114.972 E.01904
;WIDTH:0.398279
G1 X143.833 Y114.445 E.01909
;WIDTH:0.398591
G1 X143.5 Y113.891 E.01912
G1 X143.209 Y113.314 E.01911
;WIDTH:0.397875
G1 X143.002 Y112.827 E.01562
;WIDTH:0.419999
G1 X142.746 Y112.091 E.02443
G1 X142.572 Y111.331 E.02445
G1 X142.471 Y110.557 E.02447
G1 X142.441 Y109.965 E.01859
G1 X142.466 Y109.192 E.02425
G1 X142.559 Y108.454 E.02332
G1 X142.732 Y107.656 E.0256
G1 X142.913 Y107.121 E.01771
;WIDTH:0.401677
G1 X143.209 Y106.382 E.02375
;WIDTH:0.398589
G1 X143.5 Y105.805 E.01911
G1 X143.833 Y105.252 E.01909
;WIDTH:0.398279
G1 X144.131 Y104.821 E.01548
;WIDTH:0.398953
G1 X144.634 Y104.221 E.02318
G1 X145.084 Y103.755 E.01918
;WIDTH:0.397596
G1 X145.574 Y103.332 E.01909
;WIDTH:0.39833
G1 X146.093 Y102.947 E.0191
;WIDTH:0.405213
G1 X146.77 Y102.533 E.02391
;WIDTH:0.419999
G1 X147.211 Y102.286 E.01585
G1 X147.752 Y102.045 E.01857
G1 X148.489 Y101.794 E.02441
G1 X149.248 Y101.611 E.02448
G1 X150.02 Y101.5 E.02445
G1 X150.765 Y101.463 E.02339
G1 X151.579 Y101.496 E.02554
G1 X152.137 Y101.581 E.0177
;WIDTH:0.401163
G1 X152.917 Y101.745 E.02374
;WIDTH:0.39824
G1 X153.535 Y101.931 E.01907
G1 X154.138 Y102.164 E.0191
;WIDTH:0.398005
G1 X154.606 Y102.378 E.01519
;WIDTH:0.393298
G1 X155.241 Y102.734 E.02121
;WIDTH:0.395773
G1 X155.83 Y103.137 E.02094
;WIDTH:0.397609
G1 X156.331 Y103.545 E.01906
;WIDTH:0.398422
G1 X156.8 Y103.99 E.01911
;WIDTH:0.401997
G1 X157.331 Y104.583 E.02377
;WIDTH:0.416823
G1 X157.567 Y104.862 E.01136
;WIDTH:0.419999
G1 X157.975 Y105.465 E.02283
G1 X158.351 Y106.148 E.02445
G1 X158.662 Y106.864 E.02448
G1 X158.906 Y107.605 E.02446
G1 X159.071 Y108.331 E.02334
G1 X159.181 Y109.139 E.02557
G1 X159.198 Y109.707 E.01782
;WIDTH:0.39899
G1 X159.173 Y110.504 E.02361
;WIDTH:0.397333
G1 X159.094 Y111.146 E.01906
;WIDTH:0.398547
G1 X158.975 Y111.739 E.01788
G1 X158.61 Y111.7 F9000
;TYPE:External perimeter
;WIDTH:0.419999
G1 F1200
G1 X158.445 Y112.289 E.01918
G1 X158.238 Y112.865 E.01919
G1 X158.028 Y113.352 E.01663
G1 X157.671 Y114.006 E.02336
G1 X157.329 Y114.515 E.01923
G1 X156.854 Y115.101 E.02365
G1 X156.259 Y115.733 E.02722
G1 X155.69 Y116.212 E.02332
G1 X155.077 Y116.636 E.02337
G1 X154.428 Y117.002 E.02336
G1 X153.793 Y117.286 E.02181
G1 X153.042 Y117.545 E.02491
G1 X152.317 Y117.718 E.02337
G1 X151.579 Y117.823 E.02337
G1 X150.834 Y117.858 E.02338
G1 X150.09 Y117.824 E.02335
G1 X149.352 Y117.721 E.02336
G1 X148.626 Y117.55 E.02339
G1 X147.92 Y117.313 E.02335
G1 X147.239 Y117.01 E.02337
G1 X146.589 Y116.646 E.02336
G1 X145.975 Y116.222 E.0234
G1 X145.404 Y115.744 E.02335
G1 X144.879 Y115.214 E.02339
G1 X144.49 Y114.74 E.01923
G1 X144.137 Y114.24 E.01919
G1 X143.821 Y113.716 E.01919
G1 X143.545 Y113.169 E.01921
G1 X143.335 Y112.683 E.0166
G1 X143.104 Y111.975 E.02335
G1 X142.94 Y111.248 E.02337
G1 X142.845 Y110.509 E.02336
G1 X142.818 Y109.947 E.01764
G1 X142.843 Y109.205 E.02328
G1 X142.933 Y108.502 E.02222
G1 X143.1 Y107.739 E.02449
G1 X143.262 Y107.235 E.0166
G1 X143.545 Y106.527 E.02391
G1 X143.821 Y105.981 E.01918
G1 X144.137 Y105.457 E.01919
G1 X144.486 Y104.964 E.01894
G1 X144.994 Y104.362 E.0247
G1 X145.392 Y103.964 E.01765
G1 X145.809 Y103.612 E.01711
G1 X146.302 Y103.248 E.01921
G1 X146.945 Y102.858 E.02358
G1 X147.39 Y102.618 E.01585
G1 X147.904 Y102.39 E.01763
G1 X148.609 Y102.151 E.02334
G1 X149.335 Y101.978 E.0234
G1 X150.072 Y101.874 E.02334
G1 X150.782 Y101.84 E.02229
G1 X151.561 Y101.872 E.02445
G1 X152.086 Y101.945 E.01662
G1 X152.832 Y102.101 E.0239
G1 X153.418 Y102.278 E.01919
G1 X153.989 Y102.498 E.01919
G1 X154.543 Y102.759 E.0192
G1 X155.064 Y103.052 E.01874
G1 X155.622 Y103.437 E.02126
G1 X156.096 Y103.825 E.01921
G1 X156.539 Y104.247 E.01918
G1 X157.046 Y104.816 E.0239
G1 X157.662 Y105.676 E.03317
G1 X158.02 Y106.329 E.02335
G1 X158.316 Y107.013 E.02337
G1 X158.547 Y107.722 E.02338
G1 X158.703 Y108.413 E.02221
G1 X158.807 Y109.188 E.02452
G1 X158.832 Y109.724 E.01682
G1 X158.808 Y110.491 E.02406
G1 X158.731 Y111.1 E.01925
G1 X158.621 Y111.641 E.01731
G1 X158.9 Y111.975 F9000
G1 E-3.5 F3600
;WIPE_START
G1 F7200
G1 X158.445 Y112.289 E-.31895
G1 X158.238 Y112.865 E-.29073
G1 X158.028 Y113.352 E-.25192
G1 X157.671 Y114.006 E-.35392
G1 X157.337 Y114.503 E-.28448
;WIPE_END
G1 X146.649 Y102.147 F9000
G1 E5 F2400
;TYPE:Perimeter
G1 F1200
G1 X146.587 Y102.22 E.003
;WIDTH:0.405213
G1 X145.898 Y102.651 E.02448
;WIDTH:0.39833
G1 X145.354 Y103.054 E.02001
;WIDTH:0.397596
G1 X144.943 Y103.409 E.01602
;WIDTH:0.393324
G1 X144.499 Y103.847 E.01817
;WIDTH:0.397881
G1 X143.935 Y104.499 E.02544
;WIDTH:0.398279
G1 X143.541 Y105.049 E.01999
;WIDTH:0.398589
G1 X143.192 Y105.628 E.01999
G1 X142.887 Y106.232 E.02001
;WIDTH:0.397877
G1 X142.679 Y106.734 E.01604
;WIDTH:0.40624
G1 X142.554 Y107.049 E.01024
;WIDTH:0.419999
G1 X142.296 Y107.302 E.01133
G1 X141.867 Y107.319 E.01346
G1 X141.218 Y107.083 E.02165
G1 X138.82 Y106.21 E.08001
G1 X138.657 Y106.118 E.00587
G1 X138.516 Y105.947 E.00695
G1 X138.448 Y105.678 E.0087
G1 X138.489 Y105.466 E.00677
G1 X138.862 Y104.543 E.03121
G1 X139.261 Y103.722 E.02862
G1 X139.717 Y102.93 E.02865
G1 X140.227 Y102.172 E.02865
G1 X140.788 Y101.451 E.02864
G1 X141.398 Y100.772 E.02862
G1 X142.054 Y100.136 E.02865
G1 X142.753 Y99.548 E.02864
G1 X143.491 Y99.01 E.02864
G1 X144.368 Y98.46 E.03246
G1 X144.629 Y98.376 E.0086
G1 X144.859 Y98.408 E.00728
G1 X145.04 Y98.514 E.00658
G1 X145.158 Y98.657 E.00581
G1 X146.779 Y101.465 E.10166
G1 X146.836 Y101.604 E.00471
G1 X146.819 Y101.945 E.01071
G1 X146.688 Y102.101 E.00639
G1 X146.39 Y101.908 F9000
;TYPE:External perimeter
G1 F1200
G1 X145.684 Y102.352 E.02615
G1 X145.119 Y102.773 E.02209
G1 X144.588 Y103.237 E.02211
G1 X144.094 Y103.74 E.02211
G1 X143.641 Y104.28 E.0221
G1 X143.231 Y104.853 E.02209
G1 X142.867 Y105.457 E.02211
G1 X142.551 Y106.087 E.0221
G1 X142.235 Y106.859 E.02615
G1 X142.139 Y106.959 E.00435
G1 X141.996 Y106.965 E.00449
G1 X138.949 Y105.856 E.10167
G1 X138.848 Y105.768 E.0042
G1 X138.839 Y105.608 E.00502
G1 X139.212 Y104.685 E.03121
G1 X139.6 Y103.887 E.02782
G1 X140.044 Y103.119 E.02781
G1 X140.539 Y102.383 E.02781
G1 X141.085 Y101.684 E.02781
G1 X141.678 Y101.024 E.02782
G1 X142.316 Y100.407 E.02783
G1 X142.995 Y99.837 E.0278
G1 X143.713 Y99.315 E.02783
G1 X144.568 Y98.78 E.03162
G1 X144.732 Y98.763 E.00517
G1 X144.831 Y98.846 E.00405
G1 X146.453 Y101.654 E.10168
G1 X146.466 Y101.814 E.00503
G1 X146.428 Y101.861 E.0019
G1 X146.506 Y102.29 F9000
G1 E-3.5 F3600
;WIPE_START
G1 F7200
G1 X145.684 Y102.352 E-.42342
G1 X145.119 Y102.773 E-.33469
G1 X144.588 Y103.237 E-.33495
G1 X144.094 Y103.74 E-.33488
G1 X143.996 Y103.856 E-.07206
;WIPE_END
G1 X142.503 Y112.619 F9000
G1 E5 F2400
;TYPE:Perimeter
G1 F1200
G1 X142.576 Y112.699 E.0034
;WIDTH:0.401678
G1 X142.882 Y113.452 E.02425
;WIDTH:0.398591
G1 X143.185 Y114.056 E.01998
G1 X143.534 Y114.636 E.02002
;WIDTH:0.398279
G1 X143.848 Y115.081 E.01609
;WIDTH:0.393441
G1 X144.317 Y115.656 E.02163
;WIDTH:0.395834
G1 X144.834 Y116.189 E.02179
;WIDTH:0.397595
G1 X145.344 Y116.634 E.01996
