; generated by PrusaSlicer 2.6.0+win64 on 2024-07-06 at 18:22:49 UTC


;
;

;
;
; 

; external perimeters extrusion width = 0.45mm
; perimeters extrusion width = 0.45mm
; infill extrusion width = 0.45mm
; solid infill extrusion width = 0.45mm
; top infill extrusion width = 0.45mm
; first layer extrusion width = 0.42mm

; external perimeters extrusion width = 0.45mm
; perimeters extrusion width = 0.45mm
; infill extrusion width = 0.45mm
; solid infill extrusion width = 0.45mm
; top infill extrusion width = 0.45mm
; first layer extrusion width = 0.42mm

; external perimeters extrusion width = 0.45mm
; perimeters extrusion width = 0.45mm
; infill extrusion width = 0.45mm
; solid infill extrusion width = 0.45mm
; top infill extrusion width = 0.45mm
; first layer extrusion width = 0.42mm

; external perimeters extrusion width = 0.45mm
; perimeters extrusion width = 0.45mm
; infill extrusion width = 0.45mm
; solid infill extrusion width = 0.45mm
; top infill extrusion width = 0.45mm
; first layer extrusion width = 0.42mm

; external perimeters extrusion width = 0.45mm
; perimeters extrusion width = 0.45mm
; infill extrusion width = 0.45mm
; solid infill extrusion width = 0.45mm
; top infill extrusion width = 0.45mm
; first layer extrusion width = 0.42mm

; external perimeters extrusion width = 0.45mm
; perimeters extrusion width = 0.45mm
; infill extrusion width = 0.45mm
; solid infill extrusion width = 0.45mm
; top infill extrusion width = 0.45mm
; first layer extrusion width = 0.42mm

;TYPE:Custom
M413 S0 ; disable Power Loss Recovery
G90 ; use absolute coordinates
M83 ; extruder relative mode
M104 S120 ; set temporary nozzle temp to prevent oozing during homing and auto bed leveling
M140 S70 ; set final bed temp
G4 S10 ; allow partial nozzle warmup
G28 ; home all axis
;G29 ; run abl mesh
M420 S1 ; load mesh
G1 Z50 F240
G1 X2 Y10 F3000
M104 S240 ; set final nozzle temp
M190 S70 ; wait for bed temp to stabilize
M109 S240 ; wait for nozzle temp to stabilize
G1 Z0.28 F240
G92 E0
G1 Y140 E10 F1500 ; prime the nozzle
G1 X2.3 F5000
G92 E0
G1 Y10 E10 F1200 ; prime the nozzle
G92 E0
G21 ; set units to millimeters
G90 ; use absolute coordinates
M83 ; use relative distances for extrusion
; Filament gcode
M107
;LAYER_CHANGE
;Z:0.2
;HEIGHT:0.2
;BEFORE_LAYER_CHANGE
G92 E0
;0.2


G1 E-5 F3600
G1 Z.2 F9000
;AFTER_LAYER_CHANGE
;0.2
G1 X74.941 Y74.941
G1 E5 F2400
;TYPE:Skirt/Brim
;WIDTH:0.42
G1 F1200
G1 X75.98 Y73.903 E.04605
G1 X77.218 Y73.248 E.04391
G1 X90.422 Y73.203 E.414
G1 X159.111 Y81.494 E2.16933
G1 X160.507 Y82.173 E.04867
G1 X161.507 Y83.173 E.04434
G1 X162.203 Y84.853 E.05702
G1 X162.078 Y140.546 E1.74622
G1 X161.382 Y142.22 E.05684
G1 X159.566 Y144.036 E.08052
G1 X157.885 Y144.732 E.05705
G1 X107.635 Y144.732 E1.57555
G1 X77.27 Y144.579 E.95209
G1 X75.601 Y143.882 E.05671
G1 X66.583 Y134.864 E.39987
G1 X65.897 Y133.405 E.05055
G1 X65.884 Y120.397 E.40786
G1 X66.266 Y84.576 E1.12321
G1 X66.962 Y82.921 E.05629
G1 X74.899 Y74.984 E.35194
G1 E-3.5 F3600
;WIPE_START
G1 F7200
G1 X75.98 Y73.903 E-.72616
G1 X77.218 Y73.248 E-.66528
G1 X77.447 Y73.247 E-.10856
;WIPE_END
G1 X158.504 Y99.169 F9000
G1 E5 F2400
;TYPE:Perimeter
;WIDTH:0.551037
G1 F1200
G1 X158.569 Y99.084 E.00452
G1 X158.575 Y98.975 E.00461
;WIDTH:0.544381
G1 X158.575 Y85.732 E.55219
;WIDTH:0.572098
G1 X158.55 Y85.577 E.00691
;WIDTH:0.599813
G1 X158.525 Y85.422 E.00727
G1 X158.257 Y85.154 E.01755
G1 X158.102 Y85.129 E.00727
;WIDTH:0.572097
G1 X157.947 Y85.104 E.00691
;WIDTH:0.544381
G1 X156.575 Y85.104 E.05721
G1 X156.575 Y84.603 E.02089
G1 X157.947 Y84.603 E.05721
;WIDTH:0.572097
G1 X158.225 Y84.617 E.01225
;WIDTH:0.599814
G1 X158.504 Y84.63 E.01293
G1 X159.049 Y85.175 E.03569
G1 X159.049 Y85.291 E.00537
G1 X159.063 Y85.511 E.01021
;WIDTH:0.572098
G1 X159.076 Y85.732 E.00974
;WIDTH:0.544381
G1 X159.076 Y98.975 E.55219
;WIDTH:0.551037
G1 X159.095 Y99.32 E.0146
;WIDTH:0.507358
G1 X159.117 Y99.511 E.00742
;WIDTH:0.463679
G1 X159.139 Y99.703 E.00676
;WIDTH:0.419999
G1 X159.139 Y100.166 E.01452
G1 X158.675 Y100.166 E.01455
;WIDTH:0.46146
G1 X158.432 Y100.146 E.00849
;WIDTH:0.502921
G1 X158.19 Y100.125 E.00929
;WIDTH:0.544381
G1 X157.947 Y100.104 E.01017
G1 X153.075 Y100.104 E.20315
G1 X153.075 Y99.603 E.02089
G1 X157.947 Y99.603 E.20315
;WIDTH:0.551038
G1 X158.056 Y99.597 E.00461
G1 X158.153 Y99.523 E.00515
;WIDTH:0.507359
G1 X158.25 Y99.449 E.00471
;WIDTH:0.463679
G1 X158.347 Y99.375 E.00427
G1 X158.421 Y99.278 E.00427
;WIDTH:0.507358
G1 X158.468 Y99.216 E.003
G1 X158.136 Y98.975 F9000
;TYPE:External perimeter
;WIDTH:0.419999
G1 F1200
G1 X158.136 Y85.732 E.41522
G1 X158.101 Y85.624 E.00356
G1 X157.947 Y85.543 E.00546
G1 X156.136 Y85.543 E.05678
G1 X156.136 Y84.163 E.04327
G1 X158.697 Y84.163 E.0803
G1 X159.516 Y84.982 E.03632
G1 X159.516 Y100.543 E.4879
G1 X152.636 Y100.543 E.21572
G1 X152.636 Y99.163 E.04327
G1 X157.947 Y99.163 E.16652
G1 X158.08 Y99.108 E.00451
G1 X158.113 Y99.03 E.00266
G1 X158.522 Y98.871 F9000
G1 X158.431 Y99.45
;TYPE:Solid infill
;WIDTH:0.495415
G1 F1200
G1 X159.025 Y100.044 E.03161
G1 E-3.5 F3600
;WIPE_START
G1 F7200
G1 X158.431 Y99.45 E-.39902
;WIPE_END
G1 E-1.10098 F3600
G1 X155.45 Y122.503 F9000
G1 E5 F2400
;TYPE:Perimeter
;WIDTH:0.419999
G1 F1200
G1 X155.245 Y122.56 E.00667
G1 X155.029 Y122.798 E.01008
G1 X154.973 Y123.044 E.00791
G1 X154.973 Y127.086 E.12673
;WIDTH:0.459919
G1 X154.953 Y127.314 E.00794
;WIDTH:0.499839
G1 X154.933 Y127.542 E.0087
;WIDTH:0.539759
G1 X154.913 Y127.77 E.00946
;WIDTH:0.579678
G1 X154.893 Y127.998 E.01022
G1 X154.909 Y128.45 E.02019
;WIDTH:0.547325
G1 X154.925 Y128.903 E.01901
;WIDTH:0.514972
G1 X154.935 Y129.806 E.03545
;WIDTH:0.519079
G1 X154.923 Y130.711 E.03583
;WIDTH:0.554814
G1 X154.905 Y131.623 E.03883
G1 X154.928 Y131.896 E.01166
;WIDTH:0.509876
G1 X154.95 Y132.17 E.01067
;WIDTH:0.464938
G1 X154.973 Y132.444 E.00965
;WIDTH:0.419999
G1 X154.973 Y136.448 E.12554
G1 X155.029 Y136.732 E.00908
G1 X155.227 Y136.959 E.00944
G1 X155.538 Y137.052 E.01018
G1 X158.496 Y137.052 E.09275
G1 X158.655 Y139.068 E.06341
G1 X158.743 Y140.186 E.03516
G1 X157.501 Y141.428 E.05507
G1 X108.019 Y141.428 E1.55147
G1 X106.776 Y140.186 E.05509
G1 X107.024 Y137.052 E.09857
G1 X110.079 Y137.044 E.09579
G1 X110.293 Y136.959 E.00722
G1 X110.491 Y136.732 E.00944
G1 X110.547 Y136.487 E.00788
G1 X110.547 Y132.444 E.12677
;WIDTH:0.45992
G1 X110.567 Y132.216 E.00794
;WIDTH:0.49984
G1 X110.587 Y131.988 E.0087
;WIDTH:0.53976
G1 X110.607 Y131.76 E.00946
;WIDTH:0.57968
G1 X110.627 Y131.532 E.01022
G1 X110.611 Y131.08 E.02019
;WIDTH:0.547327
G1 X110.594 Y130.627 E.01901
;WIDTH:0.514973
G1 X110.584 Y129.725 E.03541
;WIDTH:0.519079
G1 X110.596 Y128.819 E.03587
;WIDTH:0.543531
G1 X110.609 Y127.908 E.03793
G1 X110.588 Y127.634 E.01144
;WIDTH:0.502354
G1 X110.568 Y127.36 E.0105
;WIDTH:0.461177
G1 X110.547 Y127.086 E.00956
;WIDTH:0.419999
G1 X110.547 Y123.082 E.12554
G1 X110.491 Y122.798 E.00908
G1 X110.274 Y122.56 E.0101
G1 X109.981 Y122.478 E.00954
G1 X108.176 Y122.478 E.05659
G1 X108.523 Y118.09 E.13801
G1 X156.997 Y118.09 E1.51987
G1 X157.344 Y122.478 E.13801
G1 X155.507 Y122.487 E.0576
G1 X155.538 Y122.855 F9000
;TYPE:External perimeter
G1 F1200
G1 X155.397 Y122.919 E.00486
G1 X155.35 Y123.044 E.00419
G1 X155.35 Y136.448 E.42027
G1 X155.397 Y136.612 E.00535
G1 X155.538 Y136.675 E.00484
G1 X158.844 Y136.675 E.10366
G1 X159.133 Y140.329 E.11493
G1 X157.657 Y141.805 E.06545
G1 X107.863 Y141.805 E1.56125
G1 X106.387 Y140.329 E.06545
G1 X106.676 Y136.675 E.11493
G1 X109.981 Y136.675 E.10363
G1 X110.123 Y136.612 E.00487
G1 X110.17 Y136.487 E.00419
G1 X110.17 Y123.082 E.4203
G1 X110.122 Y122.919 E.00533
G1 X109.981 Y122.855 E.00486
G1 X107.768 Y122.855 E.06939
G1 X108.175 Y117.713 E.16173
G1 X157.345 Y117.713 E1.54169
G1 X157.752 Y122.855 E.16173
G1 X155.598 Y122.855 E.06754
G1 X155.393 Y122.801 F9000
G1 E-3.5 F3600
;WIPE_START
G1 F7200
G1 X155.397 Y122.919 E-.1002
G1 X155.35 Y123.044 E-.06343
G1 X155.35 Y125.857 E-1.33637
;WIPE_END
G1 X153.393 Y125.559 F9000
G1 E5 F2400
;TYPE:Perimeter
G1 F1200
G1 X153.756 Y126.32 E.02644
G1 X154.054 Y127.144 E.02747
;WIDTH:0.461176
G1 X154.145 Y127.423 E.01021
;WIDTH:0.502353
G1 X154.237 Y127.701 E.01119
;WIDTH:0.54353
G1 X154.329 Y127.98 E.01223
G1 X154.45 Y128.854 E.03673
;WIDTH:0.519078
G1 X154.484 Y129.736 E.03495
;WIDTH:0.514973
G1 X154.454 Y130.616 E.03456
;WIDTH:0.547326
G1 X154.406 Y131.054 E.01848
;WIDTH:0.579679
G1 X154.359 Y131.493 E.01971
G1 X154.287 Y131.703 E.00991
;WIDTH:0.539759
G1 X154.214 Y131.913 E.00918
;WIDTH:0.499839
G1 X154.142 Y132.123 E.00843
;WIDTH:0.459919
G1 X154.07 Y132.333 E.0077
;WIDTH:0.419999
G1 X153.777 Y133.159 E.02748
G1 X153.404 Y133.953 E.02751
G1 X152.956 Y134.707 E.0275
G1 X152.436 Y135.413 E.02749
G1 X151.849 Y136.065 E.02751
G1 X151.212 Y136.645 E.02701
G1 X150.498 Y137.18 E.02797
G1 X149.747 Y137.633 E.0275
G1 X148.955 Y138.011 E.02752
G1 X148.131 Y138.309 E.02747
G1 X147.281 Y138.525 E.0275
G1 X146.413 Y138.656 E.02752
G1 X145.538 Y138.702 E.02747
G1 X144.662 Y138.661 E.0275
G1 X143.794 Y138.535 E.0275
G1 X142.942 Y138.325 E.02751
G1 X142.116 Y138.032 E.02748
G1 X141.322 Y137.66 E.02749
G1 X140.568 Y137.211 E.02752
G1 X139.862 Y136.691 E.02749
G1 X139.21 Y136.104 E.02751
G1 X138.619 Y135.456 E.0275
G1 X138.095 Y134.753 E.02749
G1 X137.642 Y134.002 E.0275
G1 X137.264 Y133.211 E.02749
G1 X136.966 Y132.386 E.0275
G1 X136.75 Y131.536 E.0275
G1 X136.619 Y130.669 E.02749
G1 X136.573 Y129.793 E.0275
G1 X136.614 Y128.917 E.0275
G1 X136.74 Y128.049 E.0275
G1 X136.95 Y127.198 E.02748
G1 X137.253 Y126.345 E.02838
G1 X137.567 Y125.68 E.02306
G1 X138.064 Y124.823 E.03106
G1 X138.584 Y124.117 E.02749
G1 X139.171 Y123.466 E.02748
G1 X139.819 Y122.875 E.0275
G1 X140.522 Y122.35 E.02751
G1 X141.273 Y121.897 E.0275
G1 X142.064 Y121.52 E.02747
G1 X142.889 Y121.222 E.0275
G1 X143.739 Y121.006 E.0275
G1 X144.606 Y120.874 E.0275
G1 X145.45 Y120.83 E.0265
G1 X146.356 Y120.869 E.02843
G1 X147.226 Y120.995 E.02756
G1 X148.077 Y121.205 E.02748
G1 X148.904 Y121.498 E.02751
G1 X149.698 Y121.871 E.02751
G1 X150.452 Y122.319 E.0275
G1 X151.158 Y122.84 E.02751
G1 X151.809 Y123.426 E.02746
G1 X152.374 Y124.046 E.0263
G1 X152.925 Y124.777 E.0287
G1 X153.365 Y125.506 E.0267
G1 E-3.5 F3600
;WIPE_START
G1 F7200
G1 X153.756 Y126.32 E-.42894
G1 X154.054 Y127.144 E-.41621
G1 X154.145 Y127.423 E-.1394
G1 X154.237 Y127.701 E-.13909
G1 X154.329 Y127.98 E-.13954
G1 X154.397 Y128.474 E-.23682
;WIPE_END
G1 X153.903 Y128.086 F9000
G1 E5 F2400
;TYPE:External perimeter
G1 F1200
G1 X154.028 Y128.917 E.02635
G1 X154.07 Y129.756 E.02634
G1 X154.029 Y130.595 E.02634
G1 X153.907 Y131.426 E.02633
G1 X153.704 Y132.241 E.02633
G1 X153.422 Y133.032 E.02633
G1 X153.063 Y133.792 E.02635
G1 X152.632 Y134.513 E.02634
G1 X152.133 Y135.188 E.02632
G1 X151.569 Y135.811 E.02635
G1 X150.959 Y136.366 E.02586
G1 X150.273 Y136.877 E.02682
G1 X149.553 Y137.31 E.02634
G1 X148.794 Y137.67 E.02634
G1 X148.004 Y137.954 E.02632
G1 X147.189 Y138.159 E.02635
G1 X146.358 Y138.283 E.02634
G1 X145.519 Y138.325 E.02634
G1 X144.68 Y138.285 E.02634
G1 X143.849 Y138.162 E.02634
G1 X143.034 Y137.959 E.02633
G1 X142.243 Y137.677 E.02633
G1 X141.483 Y137.319 E.02634
G1 X140.762 Y136.888 E.02634
G1 X140.087 Y136.388 E.02634
G1 X139.464 Y135.825 E.02633
G1 X138.899 Y135.203 E.02635
G1 X138.398 Y134.529 E.02633
G1 X137.965 Y133.808 E.02637
G1 X137.605 Y133.049 E.02634
G1 X137.321 Y132.259 E.02632
G1 X137.116 Y131.444 E.02635
G1 X136.992 Y130.613 E.02634
G1 X136.95 Y129.774 E.02634
G1 X136.99 Y128.935 E.02634
G1 X137.113 Y128.104 E.02634
G1 X137.316 Y127.289 E.02633
G1 X137.601 Y126.489 E.02663
G1 X137.907 Y125.842 E.02244
G1 X138.387 Y125.017 E.02993
G1 X138.887 Y124.342 E.02634
G1 X139.451 Y123.719 E.02635
G1 X140.072 Y123.154 E.02632
G1 X140.747 Y122.653 E.02636
G1 X141.467 Y122.22 E.02634
G1 X142.226 Y121.86 E.02634
G1 X143.016 Y121.577 E.02631
G1 X143.831 Y121.372 E.02635
G1 X144.662 Y121.247 E.02635
G1 X145.469 Y121.207 E.02533
G1 X146.339 Y121.246 E.02731
G1 X147.171 Y121.368 E.02637
G1 X147.986 Y121.571 E.02633
G1 X148.777 Y121.853 E.02633
G1 X149.537 Y122.212 E.02635
G1 X150.258 Y122.643 E.02634
G1 X150.933 Y123.142 E.02632
G1 X151.556 Y123.706 E.02635
G1 X152.095 Y124.299 E.02513
G1 X152.622 Y125.002 E.02755
G1 X153.055 Y125.722 E.02634
G1 X153.415 Y126.481 E.02634
G1 X153.699 Y127.272 E.02635
G1 X153.889 Y128.028 E.02444
G1 X154.282 Y128.214 F9000
G1 E-3.5 F3600
;WIPE_START
G1 F7200
G1 X154.028 Y128.917 E-.42741
G1 X154.07 Y129.756 E-.39902
G1 X154.029 Y130.595 E-.399
G1 X153.945 Y131.167 E-.27457
;WIPE_END
G1 X128.945 Y129.772 F9000
G1 E5 F2400
;TYPE:Perimeter
G1 F1200
G1 X128.906 Y130.613 E.0264
G1 X128.78 Y131.481 E.0275
G1 X128.57 Y132.333 E.02751
G1 X128.277 Y133.159 E.02748
G1 X127.957 Y133.843 E.02368
G1 X127.456 Y134.707 E.03131
G1 X126.936 Y135.413 E.02749
G1 X126.349 Y136.065 E.02751
G1 X125.701 Y136.656 E.0275
G1 X124.998 Y137.18 E.02749
G1 X124.247 Y137.633 E.0275
G1 X123.455 Y138.011 E.02752
G1 X122.631 Y138.309 E.02747
G1 X121.781 Y138.525 E.0275
G1 X120.913 Y138.656 E.02752
G1 X120.038 Y138.702 E.02747
G1 X119.162 Y138.661 E.0275
G1 X118.294 Y138.535 E.0275
G1 X117.442 Y138.325 E.02751
G1 X116.616 Y138.032 E.02748
G1 X115.822 Y137.66 E.02749
G1 X115.068 Y137.211 E.02752
G1 X114.362 Y136.691 E.02749
G1 X113.71 Y136.104 E.02751
G1 X113.145 Y135.484 E.0263
G1 X112.564 Y134.707 E.03042
G1 X112.142 Y134.002 E.02576
G1 X111.764 Y133.211 E.02749
G1 X111.466 Y132.386 E.0275
;WIDTH:0.464939
G1 X111.372 Y132.108 E.0103
;WIDTH:0.509878
G1 X111.279 Y131.83 E.01138
;WIDTH:0.554817
G1 X111.185 Y131.552 E.01249
G1 X111.07 Y130.676 E.03761
;WIDTH:0.519079
G1 X111.036 Y129.795 E.03491
;WIDTH:0.514972
G1 X111.066 Y128.915 E.03456
;WIDTH:0.547326
G1 X111.113 Y128.476 E.01852
;WIDTH:0.579679
G1 X111.161 Y128.037 E.01971
G1 X111.233 Y127.827 E.00991
;WIDTH:0.539759
G1 X111.305 Y127.617 E.00917
;WIDTH:0.499839
G1 X111.378 Y127.408 E.00841
;WIDTH:0.459919
G1 X111.45 Y127.198 E.0077
;WIDTH:0.419999
G1 X111.743 Y126.371 E.02751
G1 X112.115 Y125.577 E.02749
G1 X112.564 Y124.823 E.02752
G1 X113.084 Y124.117 E.02749
G1 X113.671 Y123.466 E.02748
G1 X114.312 Y122.881 E.02721
G1 X115.022 Y122.35 E.0278
G1 X115.773 Y121.897 E.0275
G1 X116.564 Y121.52 E.02747
G1 X117.389 Y121.222 E.0275
G1 X118.239 Y121.006 E.0275
G1 X119.106 Y120.874 E.0275
G1 X119.95 Y120.83 E.0265
G1 X120.856 Y120.869 E.02843
G1 X121.726 Y120.995 E.02756
G1 X122.577 Y121.205 E.02748
G1 X123.404 Y121.498 E.02751
G1 X124.198 Y121.871 E.02751
G1 X124.952 Y122.319 E.0275
G1 X125.658 Y122.84 E.02751
G1 X126.309 Y123.426 E.02746
G1 X126.9 Y124.074 E.0275
G1 X127.425 Y124.777 E.02751
G1 X127.878 Y125.528 E.0275
G1 X128.256 Y126.32 E.02752
G1 X128.554 Y127.144 E.02747
G1 X128.769 Y127.995 E.02752
G1 X128.901 Y128.862 E.0275
G1 X128.945 Y129.712 E.02669
G1 X128.57 Y129.756 F9000
;TYPE:External perimeter
G1 F1200
G1 X128.529 Y130.595 E.02634
G1 X128.407 Y131.426 E.02633
G1 X128.204 Y132.241 E.02633
G1 X127.922 Y133.032 E.02633
G1 X127.616 Y133.682 E.02253
G1 X127.132 Y134.513 E.03015
G1 X126.633 Y135.188 E.02632
G1 X126.069 Y135.811 E.02635
G1 X125.447 Y136.376 E.02635
G1 X124.773 Y136.877 E.02633
G1 X124.053 Y137.31 E.02634
G1 X123.294 Y137.67 E.02634
G1 X122.504 Y137.954 E.02632
G1 X121.689 Y138.159 E.02635
G1 X120.858 Y138.283 E.02634
G1 X120.019 Y138.325 E.02634
G1 X119.18 Y138.285 E.02634
G1 X118.349 Y138.162 E.02634
G1 X117.534 Y137.959 E.02633
G1 X116.743 Y137.677 E.02633
G1 X115.983 Y137.319 E.02634
G1 X115.262 Y136.888 E.02634
G1 X114.587 Y136.388 E.02634
G1 X113.964 Y135.825 E.02633
G1 X113.425 Y135.231 E.02515
G1 X112.898 Y134.529 E.02752
G1 X112.465 Y133.808 E.02637
G1 X112.105 Y133.049 E.02634
G1 X111.821 Y132.259 E.02632
G1 X111.616 Y131.444 E.02635
G1 X111.492 Y130.613 E.02634
G1 X111.45 Y129.774 E.02634
G1 X111.49 Y128.935 E.02634
G1 X111.613 Y128.104 E.02634
G1 X111.816 Y127.289 E.02633
G1 X112.098 Y126.498 E.02633
G1 X112.456 Y125.738 E.02634
G1 X112.887 Y125.017 E.02634
G1 X113.387 Y124.342 E.02634
G1 X113.951 Y123.719 E.02635
G1 X114.565 Y123.161 E.02601
